;FLAVOR:Marlin
;TIME:7705
;Filament used: 4.86875m
;Layer height: 0.1
;Generated with Cura_SteamEngine 4.0.0
M140 S60
M105
M190 S60
M104 S200
M105
M109 S200
M82 ;absolute extrusion mode
; Ender 3 Custom Start G-code
G28 ; Home all axes
G92 E0 ; Reset Extruder
G1 Z2.0 F3000 ; Move Z Axis up little to prevent scratching of Heat Bed
G1 X0.1 Y20 Z0.3 F5000.0 ; Move to start position
G1 X0.1 Y200.0 Z0.3 F1500.0 E15 ; Draw the first line
G1 X0.4 Y200.0 Z0.3 F5000.0 ; Move to side a little
G1 X0.4 Y20 Z0.3 F1500.0 E30 ; Draw the second line
G92 E0 ; Reset Extruder
G1 Z2.0 F3000 ; Move Z Axis up little to prevent scratching of Heat Bed
; End of custom start GCode
G92 E0
G1 F2400 E-5
;LAYER_COUNT:170
;LAYER:0
M107
M204 S5000
M205 X30 Y30
G0 F3600 X85.971 Y80.996 Z0.2
M204 S500
M205 X20 Y20
;TYPE:SKIRT
G1 F2400 E0
G1 F1800 X86.503 Y80.517 E0.02381
G1 X87.085 Y80.102 E0.04758
G1 X87.71 Y79.753 E0.07139
G1 X88.37 Y79.477 E0.09519
G1 X89.056 Y79.276 E0.11896
G1 X89.761 Y79.153 E0.14277
G1 X90.509 Y79.109 E0.16769
G1 X144.491 Y79.11 E1.96314
G1 X145.205 Y79.15 E1.98692
G1 X145.91 Y79.269 E2.0107
G1 X146.598 Y79.467 E2.03451
G1 X147.259 Y79.74 E2.0583
G1 X147.886 Y80.085 E2.0821
G1 X148.47 Y80.497 E2.10587
G1 X149.004 Y80.973 E2.12967
G1 X149.483 Y81.504 E2.15345
G1 X149.898 Y82.086 E2.17722
G1 X150.247 Y82.711 E2.20103
G1 X150.523 Y83.371 E2.22483
G1 X150.724 Y84.057 E2.2486
G1 X150.847 Y84.762 E2.27241
G1 X150.891 Y85.51 E2.29733
G1 X150.891 Y149.491 E4.42534
G1 X150.851 Y150.205 E4.44913
G1 X150.732 Y150.91 E4.47291
G1 X150.534 Y151.598 E4.49672
G1 X150.261 Y152.259 E4.52051
G1 X149.917 Y152.886 E4.54429
G1 X149.504 Y153.47 E4.56808
G1 X149.029 Y154.004 E4.59185
G1 X148.497 Y154.483 E4.61566
G1 X147.915 Y154.898 E4.63944
G1 X147.29 Y155.247 E4.66325
G1 X146.63 Y155.523 E4.68704
G1 X145.944 Y155.724 E4.71082
G1 X145.239 Y155.847 E4.73462
G1 X144.491 Y155.891 E4.75954
G1 X90.509 Y155.891 E6.55499
G1 X89.795 Y155.851 E6.57878
G1 X89.09 Y155.732 E6.60256
G1 X88.402 Y155.534 E6.62637
G1 X87.741 Y155.261 E6.65015
G1 X87.114 Y154.917 E6.67394
G1 X86.53 Y154.504 E6.69773
G1 X85.996 Y154.029 E6.7215
G1 X85.517 Y153.497 E6.74531
G1 X85.102 Y152.915 E6.76909
G1 X84.753 Y152.29 E6.79289
G1 X84.477 Y151.63 E6.81669
G1 X84.276 Y150.944 E6.84046
G1 X84.153 Y150.239 E6.86427
G1 X84.109 Y149.491 E6.88919
G1 X84.109 Y85.509 E9.01724
G1 X84.149 Y84.795 E9.04102
G1 X84.268 Y84.09 E9.0648
G1 X84.466 Y83.402 E9.08861
G1 X84.739 Y82.741 E9.1124
G1 X85.083 Y82.114 E9.13619
G1 X85.496 Y81.53 E9.15998
G1 X85.971 Y80.996 E9.18375
M204 S5000
M205 X30 Y30
G0 F3600 X86.365 Y81.17
M204 S500
M205 X20 Y20
G1 F1800 X86.893 Y80.721 E9.2068
G1 X87.468 Y80.336 E9.22982
G1 X88.085 Y80.021 E9.25286
G1 X88.733 Y79.778 E9.27588
G1 X89.406 Y79.611 E9.29894
G1 X90.092 Y79.523 E9.32194
G1 X90.509 Y79.509 E9.33582
G1 X144.491 Y79.51 E11.13127
G1 X145.182 Y79.55 E11.15429
G1 X145.865 Y79.669 E11.17735
G1 X146.529 Y79.867 E11.20039
G1 X147.165 Y80.139 E11.2234
G1 X147.766 Y80.483 E11.24643
G1 X148.324 Y80.894 E11.26948
G1 X148.83 Y81.366 E11.2925
G1 X149.279 Y81.894 E11.31555
G1 X149.664 Y82.47 E11.33859
G1 X149.979 Y83.086 E11.36161
G1 X150.222 Y83.734 E11.38462
G1 X150.389 Y84.407 E11.40769
G1 X150.477 Y85.094 E11.43072
G1 X150.491 Y85.51 E11.44457
G1 X150.491 Y149.491 E13.57258
G1 X150.451 Y150.182 E13.59561
G1 X150.332 Y150.865 E13.61866
G1 X150.134 Y151.528 E13.64168
G1 X149.862 Y152.165 E13.66472
G1 X149.518 Y152.766 E13.68775
G1 X149.107 Y153.324 E13.7108
G1 X148.635 Y153.83 E13.73381
G1 X148.107 Y154.279 E13.75686
G1 X147.532 Y154.664 E13.77988
G1 X146.915 Y154.979 E13.80292
G1 X146.267 Y155.222 E13.82594
G1 X145.594 Y155.389 E13.849
G1 X144.908 Y155.477 E13.87201
G1 X144.491 Y155.491 E13.88588
G1 X90.509 Y155.491 E15.68133
G1 X89.818 Y155.451 E15.70435
G1 X89.135 Y155.332 E15.72741
G1 X88.472 Y155.134 E15.75043
G1 X87.835 Y154.862 E15.77346
G1 X87.234 Y154.518 E15.7965
G1 X86.676 Y154.107 E15.81955
G1 X86.17 Y153.635 E15.84256
G1 X85.721 Y153.107 E15.86561
G1 X85.336 Y152.532 E15.88863
G1 X85.021 Y151.915 E15.91167
G1 X84.778 Y151.267 E15.93469
G1 X84.611 Y150.594 E15.95775
G1 X84.523 Y149.908 E15.98075
G1 X84.509 Y149.491 E15.99463
G1 X84.509 Y85.509 E18.12268
G1 X84.549 Y84.818 E18.1457
G1 X84.668 Y84.135 E18.16876
G1 X84.866 Y83.472 E18.19178
G1 X85.138 Y82.835 E18.21481
G1 X85.482 Y82.234 E18.23785
G1 X85.893 Y81.676 E18.2609
G1 X86.365 Y81.17 E18.28391
M204 S5000
M205 X30 Y30
G0 F3600 X86.758 Y81.351
M204 S500
M205 X20 Y20
G1 F1800 X87.28 Y80.933 E18.30615
G1 X87.849 Y80.581 E18.32841
G1 X88.456 Y80.299 E18.35067
G1 X89.092 Y80.091 E18.37292
G1 X89.748 Y79.961 E18.39517
G1 X90.509 Y79.909 E18.42054
G1 X144.491 Y79.91 E20.21599
G1 X145.159 Y79.95 E20.23824
G1 X145.817 Y80.069 E20.26048
G1 X146.457 Y80.266 E20.28276
G1 X147.068 Y80.538 E20.305
G1 X147.642 Y80.881 E20.32724
G1 X148.172 Y81.29 E20.34951
G1 X148.649 Y81.759 E20.37176
G1 X149.067 Y82.282 E20.39402
G1 X149.419 Y82.85 E20.41625
G1 X149.701 Y83.457 E20.43851
G1 X149.909 Y84.093 E20.46077
G1 X150.039 Y84.749 E20.48301
G1 X150.091 Y85.51 E20.50838
G1 X150.091 Y149.491 E22.6364
G1 X150.051 Y150.159 E22.65865
G1 X149.932 Y150.817 E22.68089
G1 X149.735 Y151.457 E22.70317
G1 X149.463 Y152.068 E22.72541
G1 X149.12 Y152.642 E22.74765
G1 X148.711 Y153.172 E22.76992
G1 X148.242 Y153.649 E22.79217
G1 X147.72 Y154.067 E22.81441
G1 X147.151 Y154.419 E22.83666
G1 X146.544 Y154.701 E22.85892
G1 X145.908 Y154.909 E22.88118
G1 X145.252 Y155.039 E22.90342
G1 X144.491 Y155.091 E22.92879
G1 X90.509 Y155.091 E24.72424
G1 X89.841 Y155.051 E24.7465
G1 X89.183 Y154.932 E24.76874
G1 X88.543 Y154.735 E24.79101
G1 X87.932 Y154.463 E24.81326
G1 X87.358 Y154.12 E24.8355
G1 X86.828 Y153.711 E24.85776
G1 X86.351 Y153.242 E24.88001
G1 X85.933 Y152.72 E24.90225
G1 X85.581 Y152.151 E24.92451
G1 X85.299 Y151.544 E24.94677
G1 X85.091 Y150.908 E24.96902
G1 X84.961 Y150.252 E24.99127
G1 X84.909 Y149.491 E25.01664
G1 X84.909 Y85.509 E27.14469
G1 X84.949 Y84.841 E27.16695
G1 X85.068 Y84.183 E27.18919
G1 X85.265 Y83.543 E27.21146
G1 X85.537 Y82.932 E27.2337
G1 X85.88 Y82.358 E27.25594
G1 X86.289 Y81.828 E27.27821
G1 X86.758 Y81.351 E27.30046
M204 S5000
M205 X30 Y30
G0 F3600 X86.684 Y81.986
M204 S500
M205 X20 Y20
G1 F1800 X87.149 Y81.54 E27.32189
G1 X87.666 Y81.155 E27.34333
G1 X88.227 Y80.836 E27.36479
G1 X88.823 Y80.59 E27.38624
G1 X89.444 Y80.419 E27.40766
G1 X90.082 Y80.327 E27.4291
G1 X90.509 Y80.309 E27.44331
G1 X144.491 Y80.31 E29.23876
G1 X145.135 Y80.35 E29.26022
G1 X145.768 Y80.469 E29.28165
G1 X146.382 Y80.666 E29.30309
G1 X146.967 Y80.937 E29.32454
G1 X147.514 Y81.279 E29.34599
G1 X148.014 Y81.685 E29.36742
G1 X148.46 Y82.151 E29.38887
G1 X148.845 Y82.667 E29.41028
G1 X149.164 Y83.228 E29.43175
G1 X149.41 Y83.824 E29.45319
G1 X149.581 Y84.445 E29.47462
G1 X149.673 Y85.083 E29.49606
G1 X149.691 Y85.51 E29.51027
G1 X149.691 Y149.491 E31.63829
G1 X149.651 Y150.134 E31.65971
G1 X149.532 Y150.768 E31.68117
G1 X149.335 Y151.382 E31.70262
G1 X149.064 Y151.967 E31.72406
G1 X148.722 Y152.514 E31.74552
G1 X148.316 Y153.014 E31.76694
G1 X147.851 Y153.46 E31.78837
G1 X147.334 Y153.845 E31.80981
G1 X146.773 Y154.164 E31.83127
G1 X146.177 Y154.41 E31.85272
G1 X145.556 Y154.581 E31.87414
G1 X144.918 Y154.673 E31.89558
G1 X144.491 Y154.691 E31.9098
G1 X90.509 Y154.691 E33.70524
G1 X89.866 Y154.651 E33.72667
G1 X89.232 Y154.532 E33.74813
G1 X88.618 Y154.335 E33.76957
G1 X88.033 Y154.064 E33.79102
G1 X87.486 Y153.722 E33.81247
G1 X86.986 Y153.316 E33.8339
G1 X86.54 Y152.851 E33.85533
G1 X86.155 Y152.334 E33.87677
G1 X85.836 Y151.773 E33.89823
G1 X85.59 Y151.177 E33.91968
G1 X85.419 Y150.556 E33.9411
G1 X85.327 Y149.918 E33.96254
G1 X85.309 Y149.491 E33.97675
G1 X85.309 Y85.509 E36.1048
G1 X85.349 Y84.866 E36.12623
G1 X85.468 Y84.232 E36.14769
G1 X85.665 Y83.618 E36.16913
G1 X85.936 Y83.033 E36.19058
G1 X86.278 Y82.486 E36.21203
G1 X86.684 Y81.986 E36.23346
M204 S5000
M205 X30 Y30
G1 F2400 E31.23346
;MESH:mount.stl
G0 F3600 X89.835 Y86.114
G0 X91.114 Y86.114
G0 X143.83 Y148.83
G0 X143.9 Y148.9
M204 S500
M205 X20 Y20
;TYPE:WALL-INNER
G1 F2400 E36.23346
G1 F1800 X91.1 Y148.9 E37.98959
G1 X91.1 Y86.1 E40.07833
G1 X143.9 Y86.1 E41.83446
G1 X143.9 Y148.9 E43.9232
M204 S5000
M205 X30 Y30
G0 F3600 X144.3 Y149.3
M204 S500
M205 X20 Y20
;TYPE:WALL-OUTER
G1 F1800 X90.7 Y149.3 E45.70594
G1 X90.7 Y85.7 E47.82129
G1 X144.3 Y85.7 E49.60403
G1 X144.3 Y149.3 E51.71937
M204 S5000
M205 X30 Y30
G0 F3600 X144.1 Y149.3
G0 X143.51 Y148.51
M204 S500
M205 X20 Y20
;TYPE:SKIN
G1 F1800 X91.49 Y148.51 E53.44957
G1 X91.49 Y86.49 E55.51236
G1 X143.51 Y86.49 E57.24255
G1 X143.51 Y148.51 E59.30535
M204 S5000
M205 X30 Y30
G0 F3600 X91.76 Y148.329
M204 S500
M205 X20 Y20
G1 F1800 X91.669 Y148.237 E59.30965
M204 S5000
M205 X30 Y30
G0 F3600 X91.669 Y147.672
M204 S500
M205 X20 Y20
G1 F1800 X92.326 Y148.329 E59.34055
M204 S5000
M205 X30 Y30
G0 F3600 X92.891 Y148.329
M204 S500
M205 X20 Y20
G1 F1800 X91.669 Y147.106 E59.39806
M204 S5000
M205 X30 Y30
G0 F3600 X91.669 Y146.54
M204 S500
M205 X20 Y20
G1 F1800 X93.457 Y148.329 E59.48218
M204 S5000
M205 X30 Y30
G0 F3600 X94.023 Y148.329
M204 S500
M205 X20 Y20
G1 F1800 X91.669 Y145.975 E59.59291
M204 S5000
M205 X30 Y30
G0 F3600 X91.669 Y145.409
M204 S500
M205 X20 Y20
G1 F1800 X94.588 Y148.329 E59.73023
M204 S5000
M205 X30 Y30
G0 F3600 X95.154 Y148.329
M204 S500
M205 X20 Y20
G1 F1800 X91.669 Y144.843 E59.89418
M204 S5000
M205 X30 Y30
G0 F3600 X91.669 Y144.278
M204 S500
M205 X20 Y20
G1 F1800 X95.72 Y148.329 E60.08472
M204 S5000
M205 X30 Y30
G0 F3600 X96.286 Y148.329
M204 S500
M205 X20 Y20
G1 F1800 X91.669 Y143.712 E60.30189
M204 S5000
M205 X30 Y30
G0 F3600 X91.669 Y143.146
M204 S500
M205 X20 Y20
G1 F1800 X96.851 Y148.329 E60.54566
M204 S5000
M205 X30 Y30
G0 F3600 X97.417 Y148.329
M204 S500
M205 X20 Y20
G1 F1800 X91.669 Y142.581 E60.81603
M204 S5000
M205 X30 Y30
G0 F3600 X91.669 Y142.015
M204 S500
M205 X20 Y20
G1 F1800 X97.983 Y148.329 E61.11302
M204 S5000
M205 X30 Y30
G0 F3600 X98.548 Y148.329
M204 S500
M205 X20 Y20
G1 F1800 X91.669 Y141.449 E61.43661
M204 S5000
M205 X30 Y30
G0 F3600 X91.669 Y140.883
M204 S500
M205 X20 Y20
G1 F1800 X99.114 Y148.329 E61.78683
M204 S5000
M205 X30 Y30
G0 F3600 X99.68 Y148.329
M204 S500
M205 X20 Y20
G1 F1800 X91.669 Y140.318 E62.16364
M204 S5000
M205 X30 Y30
G0 F3600 X91.669 Y139.752
M204 S500
M205 X20 Y20
G1 F1800 X100.245 Y148.329 E62.56705
M204 S5000
M205 X30 Y30
G0 F3600 X100.811 Y148.329
M204 S500
M205 X20 Y20
G1 F1800 X91.669 Y139.186 E62.99709
M204 S5000
M205 X30 Y30
G0 F3600 X91.669 Y138.621
M204 S500
M205 X20 Y20
G1 F1800 X101.377 Y148.329 E63.45372
M204 S5000
M205 X30 Y30
G0 F3600 X101.942 Y148.329
M204 S500
M205 X20 Y20
G1 F1800 X91.669 Y138.055 E63.93696
M204 S5000
M205 X30 Y30
G0 F3600 X91.669 Y137.489
M204 S500
M205 X20 Y20
G1 F1800 X102.508 Y148.329 E64.44681
M204 S5000
M205 X30 Y30
G0 F3600 X103.074 Y148.329
M204 S500
M205 X20 Y20
G1 F1800 X91.669 Y136.924 E64.98327
M204 S5000
M205 X30 Y30
G0 F3600 X91.669 Y136.358
M204 S500
M205 X20 Y20
G1 F1800 X103.639 Y148.329 E65.54632
M204 S5000
M205 X30 Y30
G0 F3600 X104.205 Y148.329
M204 S500
M205 X20 Y20
G1 F1800 X91.669 Y135.792 E66.136
M204 S5000
M205 X30 Y30
G0 F3600 X91.669 Y135.227
M204 S500
M205 X20 Y20
G1 F1800 X104.771 Y148.329 E66.75228
M204 S5000
M205 X30 Y30
G0 F3600 X105.336 Y148.329
M204 S500
M205 X20 Y20
G1 F1800 X91.669 Y134.661 E67.39516
M204 S5000
M205 X30 Y30
G0 F3600 X91.669 Y134.095
M204 S500
M205 X20 Y20
G1 F1800 X105.902 Y148.329 E68.06466
M204 S5000
M205 X30 Y30
G0 F3600 X106.468 Y148.329
M204 S500
M205 X20 Y20
G1 F1800 X91.669 Y133.53 E68.76076
M204 S5000
M205 X30 Y30
G0 F3600 X91.669 Y132.964
M204 S500
M205 X20 Y20
G1 F1800 X107.034 Y148.329 E69.48348
M204 S5000
M205 X30 Y30
G0 F3600 X107.599 Y148.329
M204 S500
M205 X20 Y20
G1 F1800 X91.669 Y132.398 E70.2328
M204 S5000
M205 X30 Y30
G0 F3600 X91.669 Y131.832
M204 S500
M205 X20 Y20
G1 F1800 X108.165 Y148.329 E71.00875
M204 S5000
M205 X30 Y30
G0 F3600 X108.731 Y148.329
M204 S500
M205 X20 Y20
G1 F1800 X91.669 Y131.267 E71.81129
M204 S5000
M205 X30 Y30
G0 F3600 X91.669 Y130.701
M204 S500
M205 X20 Y20
G1 F1800 X109.296 Y148.329 E72.64043
M204 S5000
M205 X30 Y30
G0 F3600 X109.862 Y148.329
M204 S500
M205 X20 Y20
G1 F1800 X91.669 Y130.135 E73.4962
M204 S5000
M205 X30 Y30
G0 F3600 X91.669 Y129.57
M204 S500
M205 X20 Y20
G1 F1800 X110.428 Y148.329 E74.37857
M204 S5000
M205 X30 Y30
G0 F3600 X110.993 Y148.329
M204 S500
M205 X20 Y20
G1 F1800 X91.669 Y129.004 E75.28753
M204 S5000
M205 X30 Y30
G0 F3600 X91.669 Y128.438
M204 S500
M205 X20 Y20
G1 F1800 X111.559 Y148.329 E76.22312
M204 S5000
M205 X30 Y30
G0 F3600 X112.125 Y148.329
M204 S500
M205 X20 Y20
G1 F1800 X91.669 Y127.873 E77.18531
M204 S5000
M205 X30 Y30
G0 F3600 X91.669 Y127.307
M204 S500
M205 X20 Y20
G1 F1800 X112.69 Y148.329 E78.17409
M204 S5000
M205 X30 Y30
G0 F3600 X113.256 Y148.329
M204 S500
M205 X20 Y20
G1 F1800 X91.669 Y126.741 E79.1895
M204 S5000
M205 X30 Y30
G0 F3600 X91.669 Y126.176
M204 S500
M205 X20 Y20
G1 F1800 X113.822 Y148.329 E80.23151
M204 S5000
M205 X30 Y30
G0 F3600 X114.387 Y148.329
M204 S500
M205 X20 Y20
G1 F1800 X91.669 Y125.61 E81.30012
M204 S5000
M205 X30 Y30
G0 F3600 X91.669 Y125.044
M204 S500
M205 X20 Y20
G1 F1800 X114.953 Y148.329 E82.39535
M204 S5000
M205 X30 Y30
G0 F3600 X115.519 Y148.329
M204 S500
M205 X20 Y20
G1 F1800 X91.669 Y124.479 E83.51718
M204 S5000
M205 X30 Y30
G0 F3600 X91.669 Y123.913
M204 S500
M205 X20 Y20
G1 F1800 X116.085 Y148.329 E84.66564
M204 S5000
M205 X30 Y30
G0 F3600 X116.65 Y148.329
M204 S500
M205 X20 Y20
G1 F1800 X91.669 Y123.347 E85.84069
M204 S5000
M205 X30 Y30
G0 F3600 X91.669 Y122.782
M204 S500
M205 X20 Y20
G1 F1800 X117.216 Y148.329 E87.04234
M204 S5000
M205 X30 Y30
G0 F3600 X117.782 Y148.329
M204 S500
M205 X20 Y20
G1 F1800 X91.669 Y122.216 E88.27062
M204 S5000
M205 X30 Y30
G0 F3600 X91.669 Y121.65
M204 S500
M205 X20 Y20
G1 F1800 X118.347 Y148.329 E89.52549
M204 S5000
M205 X30 Y30
G0 F3600 X118.913 Y148.329
M204 S500
M205 X20 Y20
G1 F1800 X91.669 Y121.084 E90.80699
M204 S5000
M205 X30 Y30
G0 F3600 X91.669 Y120.519
M204 S500
M205 X20 Y20
G1 F1800 X119.479 Y148.329 E92.11509
M204 S5000
M205 X30 Y30
G0 F3600 X120.044 Y148.329
M204 S500
M205 X20 Y20
G1 F1800 X91.669 Y119.953 E93.44979
M204 S5000
M205 X30 Y30
G0 F3600 X91.669 Y119.387
M204 S500
M205 X20 Y20
G1 F1800 X120.61 Y148.329 E94.81111
M204 S5000
M205 X30 Y30
G0 F3600 X121.176 Y148.329
M204 S500
M205 X20 Y20
G1 F1800 X91.669 Y118.822 E96.19902
M204 S5000
M205 X30 Y30
G0 F3600 X91.669 Y118.256
M204 S500
M205 X20 Y20
G1 F1800 X121.741 Y148.329 E97.61354
M204 S5000
M205 X30 Y30
G0 F3600 X122.307 Y148.329
M204 S500
M205 X20 Y20
G1 F1800 X91.669 Y117.69 E99.05468
M204 S5000
M205 X30 Y30
G0 F3600 X91.669 Y117.125
M204 S500
M205 X20 Y20
G1 F1800 X122.873 Y148.329 E100.52242
M204 S5000
M205 X30 Y30
G0 F3600 X123.438 Y148.329
M204 S500
M205 X20 Y20
G1 F1800 X91.669 Y116.559 E102.01676
M204 S5000
M205 X30 Y30
G0 F3600 X91.669 Y115.993
M204 S500
M205 X20 Y20
G1 F1800 X124.004 Y148.329 E103.53773
M204 S5000
M205 X30 Y30
G0 F3600 X124.57 Y148.329
M204 S500
M205 X20 Y20
G1 F1800 X91.669 Y115.428 E105.08529
M204 S5000
M205 X30 Y30
G0 F3600 X91.669 Y114.862
M204 S500
M205 X20 Y20
G1 F1800 X125.135 Y148.329 E106.65945
M204 S5000
M205 X30 Y30
G0 F3600 X125.701 Y148.329
M204 S500
M205 X20 Y20
G1 F1800 X91.669 Y114.296 E108.26023
M204 S5000
M205 X30 Y30
G0 F3600 X91.669 Y113.731
M204 S500
M205 X20 Y20
G1 F1800 X126.267 Y148.329 E109.88762
M204 S5000
M205 X30 Y30
G0 F3600 X126.833 Y148.329
M204 S500
M205 X20 Y20
G1 F1800 X91.669 Y113.165 E111.54163
M204 S5000
M205 X30 Y30
G0 F3600 X91.669 Y112.599
M204 S500
M205 X20 Y20
G1 F1800 X127.398 Y148.329 E113.22223
M204 S5000
M205 X30 Y30
G0 F3600 X127.964 Y148.329
M204 S500
M205 X20 Y20
G1 F1800 X91.669 Y112.033 E114.92946
M204 S5000
M205 X30 Y30
G0 F3600 X91.669 Y111.468
M204 S500
M205 X20 Y20
G1 F1800 X128.53 Y148.329 E116.66329
M204 S5000
M205 X30 Y30
G0 F3600 X129.095 Y148.329
M204 S500
M205 X20 Y20
G1 F1800 X91.669 Y110.902 E118.42372
M204 S5000
M205 X30 Y30
G0 F3600 X91.669 Y110.336
