;FLAVOR:Marlin
;TIME:10748
;Filament used: 7.96466m
;Layer height: 0.15
;Generated with Cura_SteamEngine 4.0.0
M140 S60
M105
M190 S60
M104 S210
M105
M109 S210
M82 ;absolute extrusion mode
; Ender 3 Custom Start G-code
G28 ; Home all axes
G92 E0 ; Reset Extruder
G1 Z2.0 F3000 ; Move Z Axis up little to prevent scratching of Heat Bed
G1 X0.1 Y20 Z0.3 F5000.0 ; Move to start position
G1 X0.1 Y200.0 Z0.3 F1500.0 E15 ; Draw the first line
G1 X0.4 Y200.0 Z0.3 F5000.0 ; Move to side a little
G1 X0.4 Y20 Z0.3 F1500.0 E30 ; Draw the second line
G92 E0 ; Reset Extruder
G1 Z2.0 F3000 ; Move Z Axis up little to prevent scratching of Heat Bed
; End of custom start GCode
G92 E0
G1 F2400 E-5
;LAYER_COUNT:34
;LAYER:0
M107
M204 S5000
M205 X30 Y30
;MESH:setup mount.stl
G0 F3600 X146.9 Y191.9 Z0.2
M204 S500
M205 X20 Y20
;TYPE:WALL-INNER
G1 F2400 E0
G1 F1800 X88.1 Y191.9 E1.9557
G1 X88.1 Y43.1 E6.9048
G1 X146.9 Y43.1 E8.8605
G1 X146.9 Y191.9 E13.80961
M204 S5000
M205 X30 Y30
G0 F3600 X147.3 Y192.3
M204 S500
M205 X20 Y20
;TYPE:WALL-OUTER
G1 F1800 X87.7 Y192.3 E15.79191
G1 X87.7 Y42.7 E20.76763
G1 X147.3 Y42.7 E22.74993
G1 X147.3 Y192.3 E27.72565
M204 S5000
M205 X30 Y30
G0 F3600 X147.1 Y192.3
G0 X146.51 Y191.51
M204 S500
M205 X20 Y20
;TYPE:SKIN
G1 F1800 X88.49 Y191.51 E29.6554
G1 X88.49 Y43.49 E34.57857
G1 X146.51 Y43.49 E36.50832
G1 X146.51 Y191.51 E41.43149
M204 S5000
M205 X30 Y30
G0 F3600 X88.939 Y191.328
M204 S500
M205 X20 Y20
G1 F1800 X88.669 Y191.058 E41.44418
M204 S5000
M205 X30 Y30
G0 F3600 X88.669 Y190.492
M204 S500
M205 X20 Y20
G1 F1800 X89.505 Y191.328 E41.48351
M204 S5000
M205 X30 Y30
G0 F3600 X90.071 Y191.328
M204 S500
M205 X20 Y20
G1 F1800 X88.669 Y189.926 E41.54945
M204 S5000
M205 X30 Y30
G0 F3600 X88.669 Y189.361
M204 S500
M205 X20 Y20
G1 F1800 X90.636 Y191.328 E41.64198
M204 S5000
M205 X30 Y30
G0 F3600 X91.202 Y191.328
M204 S500
M205 X20 Y20
G1 F1800 X88.669 Y188.795 E41.76112
M204 S5000
M205 X30 Y30
G0 F3600 X88.669 Y188.229
M204 S500
M205 X20 Y20
G1 F1800 X91.768 Y191.328 E41.90689
M204 S5000
M205 X30 Y30
G0 F3600 X92.334 Y191.328
M204 S500
M205 X20 Y20
G1 F1800 X88.669 Y187.664 E42.07925
M204 S5000
M205 X30 Y30
G0 F3600 X88.669 Y187.098
M204 S500
M205 X20 Y20
G1 F1800 X92.899 Y191.328 E42.27822
M204 S5000
M205 X30 Y30
G0 F3600 X93.465 Y191.328
M204 S500
M205 X20 Y20
G1 F1800 X88.669 Y186.532 E42.50381
M204 S5000
M205 X30 Y30
G0 F3600 X88.669 Y185.966
M204 S500
M205 X20 Y20
G1 F1800 X94.031 Y191.328 E42.75602
M204 S5000
M205 X30 Y30
G0 F3600 X94.596 Y191.328
M204 S500
M205 X20 Y20
G1 F1800 X88.669 Y185.401 E43.03481
M204 S5000
M205 X30 Y30
G0 F3600 X88.669 Y184.835
M204 S500
M205 X20 Y20
G1 F1800 X95.162 Y191.328 E43.34022
M204 S5000
M205 X30 Y30
G0 F3600 X95.728 Y191.328
M204 S500
M205 X20 Y20
G1 F1800 X88.669 Y184.269 E43.67225
M204 S5000
M205 X30 Y30
G0 F3600 X88.669 Y183.704
M204 S500
M205 X20 Y20
G1 F1800 X96.293 Y191.328 E44.03086
M204 S5000
M205 X30 Y30
G0 F3600 X96.859 Y191.328
M204 S500
M205 X20 Y20
G1 F1800 X88.669 Y183.138 E44.4161
M204 S5000
M205 X30 Y30
G0 F3600 X88.669 Y182.572
M204 S500
M205 X20 Y20
G1 F1800 X97.425 Y191.328 E44.82795
M204 S5000
M205 X30 Y30
G0 F3600 X97.99 Y191.328
M204 S500
M205 X20 Y20
G1 F1800 X88.669 Y182.007 E45.26638
M204 S5000
M205 X30 Y30
G0 F3600 X88.669 Y181.441
M204 S500
M205 X20 Y20
G1 F1800 X98.556 Y191.328 E45.73144
M204 S5000
M205 X30 Y30
G0 F3600 X99.122 Y191.328
M204 S500
M205 X20 Y20
G1 F1800 X88.669 Y180.875 E46.22311
M204 S5000
M205 X30 Y30
G0 F3600 X88.669 Y180.31
M204 S500
M205 X20 Y20
G1 F1800 X99.687 Y191.328 E46.74137
M204 S5000
M205 X30 Y30
G0 F3600 X100.253 Y191.328
M204 S500
M205 X20 Y20
G1 F1800 X88.669 Y179.744 E47.28624
M204 S5000
M205 X30 Y30
G0 F3600 X88.669 Y179.178
M204 S500
M205 X20 Y20
G1 F1800 X100.819 Y191.328 E47.85774
M204 S5000
M205 X30 Y30
G0 F3600 X101.384 Y191.328
M204 S500
M205 X20 Y20
G1 F1800 X88.669 Y178.613 E48.45582
M204 S5000
M205 X30 Y30
G0 F3600 X88.669 Y178.047
M204 S500
M205 X20 Y20
G1 F1800 X101.95 Y191.328 E49.08051
M204 S5000
M205 X30 Y30
G0 F3600 X102.516 Y191.328
M204 S500
M205 X20 Y20
G1 F1800 X88.669 Y177.481 E49.73183
M204 S5000
M205 X30 Y30
G0 F3600 X88.669 Y176.915
M204 S500
M205 X20 Y20
G1 F1800 X103.082 Y191.328 E50.40978
M204 S5000
M205 X30 Y30
G0 F3600 X103.647 Y191.328
M204 S500
M205 X20 Y20
G1 F1800 X88.669 Y176.35 E51.1143
M204 S5000
M205 X30 Y30
G0 F3600 X88.669 Y175.784
M204 S500
M205 X20 Y20
G1 F1800 X104.213 Y191.328 E51.84544
M204 S5000
M205 X30 Y30
G0 F3600 X104.779 Y191.328
M204 S500
M205 X20 Y20
G1 F1800 X88.669 Y175.218 E52.6032
M204 S5000
M205 X30 Y30
G0 F3600 X88.669 Y174.653
M204 S500
M205 X20 Y20
G1 F1800 X105.344 Y191.328 E53.38754
M204 S5000
M205 X30 Y30
G0 F3600 X105.91 Y191.328
M204 S500
M205 X20 Y20
G1 F1800 X88.669 Y174.087 E54.19851
M204 S5000
M205 X30 Y30
G0 F3600 X88.669 Y173.521
M204 S500
M205 X20 Y20
G1 F1800 X106.476 Y191.328 E55.0361
M204 S5000
M205 X30 Y30
G0 F3600 X107.041 Y191.328
M204 S500
M205 X20 Y20
G1 F1800 X88.669 Y172.956 E55.90026
M204 S5000
M205 X30 Y30
G0 F3600 X88.669 Y172.39
M204 S500
M205 X20 Y20
G1 F1800 X107.607 Y191.328 E56.79104
M204 S5000
M205 X30 Y30
G0 F3600 X108.173 Y191.328
M204 S500
M205 X20 Y20
G1 F1800 X88.669 Y171.824 E57.70845
M204 S5000
M205 X30 Y30
G0 F3600 X88.669 Y171.259
M204 S500
M205 X20 Y20
G1 F1800 X108.738 Y191.328 E58.65244
M204 S5000
M205 X30 Y30
G0 F3600 X109.304 Y191.328
M204 S500
M205 X20 Y20
G1 F1800 X88.669 Y170.693 E59.62304
M204 S5000
M205 X30 Y30
G0 F3600 X88.669 Y170.127
M204 S500
M205 X20 Y20
G1 F1800 X109.87 Y191.328 E60.62027
M204 S5000
M205 X30 Y30
G0 F3600 X110.435 Y191.328
M204 S500
M205 X20 Y20
G1 F1800 X88.669 Y169.562 E61.64408
M204 S5000
M205 X30 Y30
G0 F3600 X88.669 Y168.996
M204 S500
M205 X20 Y20
G1 F1800 X111.001 Y191.328 E62.69451
M204 S5000
M205 X30 Y30
G0 F3600 X111.567 Y191.328
M204 S500
M205 X20 Y20
G1 F1800 X88.669 Y168.43 E63.77156
M204 S5000
M205 X30 Y30
G0 F3600 X88.669 Y167.865
M204 S500
M205 X20 Y20
G1 F1800 X112.132 Y191.328 E64.87519
M204 S5000
M205 X30 Y30
G0 F3600 X112.698 Y191.328
M204 S500
M205 X20 Y20
G1 F1800 X88.669 Y167.299 E66.00544
M204 S5000
M205 X30 Y30
G0 F3600 X88.669 Y166.733
M204 S500
M205 X20 Y20
G1 F1800 X113.264 Y191.328 E67.16231
M204 S5000
M205 X30 Y30
G0 F3600 X113.83 Y191.328
M204 S500
M205 X20 Y20
G1 F1800 X88.669 Y166.167 E68.34581
M204 S5000
M205 X30 Y30
G0 F3600 X88.669 Y165.602
M204 S500
M205 X20 Y20
G1 F1800 X114.395 Y191.328 E69.55588
M204 S5000
M205 X30 Y30
G0 F3600 X114.961 Y191.328
M204 S500
M205 X20 Y20
G1 F1800 X88.669 Y165.036 E70.79257
M204 S5000
M205 X30 Y30
G0 F3600 X88.669 Y164.47
M204 S500
M205 X20 Y20
G1 F1800 X115.527 Y191.328 E72.05589
M204 S5000
M205 X30 Y30
G0 F3600 X116.092 Y191.328
M204 S500
M205 X20 Y20
G1 F1800 X88.669 Y163.905 E73.34579
M204 S5000
M205 X30 Y30
G0 F3600 X88.669 Y163.339
M204 S500
M205 X20 Y20
G1 F1800 X116.658 Y191.328 E74.6623
M204 S5000
M205 X30 Y30
G0 F3600 X117.224 Y191.328
M204 S500
M205 X20 Y20
G1 F1800 X88.669 Y162.773 E76.00544
M204 S5000
M205 X30 Y30
G0 F3600 X88.669 Y162.208
M204 S500
M205 X20 Y20
G1 F1800 X117.789 Y191.328 E77.37516
M204 S5000
M205 X30 Y30
G0 F3600 X118.355 Y191.328
M204 S500
M205 X20 Y20
G1 F1800 X88.669 Y161.642 E78.7715
M204 S5000
M205 X30 Y30
G0 F3600 X88.669 Y161.076
M204 S500
M205 X20 Y20
G1 F1800 X118.921 Y191.328 E80.19446
M204 S5000
M205 X30 Y30
G0 F3600 X119.486 Y191.328
M204 S500
M205 X20 Y20
G1 F1800 X88.669 Y160.511 E81.64399
M204 S5000
M205 X30 Y30
G0 F3600 X88.669 Y159.945
M204 S500
M205 X20 Y20
G1 F1800 X120.052 Y191.328 E83.12016
M204 S5000
M205 X30 Y30
G0 F3600 X120.618 Y191.328
M204 S500
M205 X20 Y20
G1 F1800 X88.669 Y159.379 E84.62294
M204 S5000
M205 X30 Y30
G0 F3600 X88.669 Y158.814
M204 S500
M205 X20 Y20
G1 F1800 X121.183 Y191.328 E86.1523
M204 S5000
M205 X30 Y30
G0 F3600 X121.749 Y191.328
M204 S500
M205 X20 Y20
G1 F1800 X88.669 Y158.248 E87.70828
M204 S5000
M205 X30 Y30
G0 F3600 X88.669 Y157.682
M204 S500
M205 X20 Y20
G1 F1800 X122.315 Y191.328 E89.29088
M204 S5000
M205 X30 Y30
G0 F3600 X122.881 Y191.328
M204 S500
M205 X20 Y20
G1 F1800 X88.669 Y157.117 E90.90009
M204 S5000
M205 X30 Y30
G0 F3600 X88.669 Y156.551
M204 S500
M205 X20 Y20
G1 F1800 X123.446 Y191.328 E92.53589
M204 S5000
M205 X30 Y30
G0 F3600 X124.012 Y191.328
M204 S500
M205 X20 Y20
G1 F1800 X88.669 Y155.985 E94.19832
M204 S5000
M205 X30 Y30
G0 F3600 X88.669 Y155.419
M204 S500
M205 X20 Y20
G1 F1800 X124.578 Y191.328 E95.88737
M204 S5000
M205 X30 Y30
G0 F3600 X125.143 Y191.328
M204 S500
M205 X20 Y20
G1 F1800 X88.669 Y154.854 E97.60299
M204 S5000
M205 X30 Y30
G0 F3600 X88.669 Y154.288
M204 S500
M205 X20 Y20
G1 F1800 X125.709 Y191.328 E99.34524
M204 S5000
M205 X30 Y30
G0 F3600 X126.275 Y191.328
M204 S500
M205 X20 Y20
G1 F1800 X88.669 Y153.722 E101.11411
M204 S5000
M205 X30 Y30
G0 F3600 X88.669 Y153.157
M204 S500
M205 X20 Y20
G1 F1800 X126.84 Y191.328 E102.90956
M204 S5000
M205 X30 Y30
G0 F3600 X127.406 Y191.328
M204 S500
M205 X20 Y20
G1 F1800 X88.669 Y152.591 E104.73163
M204 S5000
M205 X30 Y30
G0 F3600 X88.669 Y152.025
M204 S500
M205 X20 Y20
G1 F1800 X127.972 Y191.328 E106.58032
M204 S5000
M205 X30 Y30
G0 F3600 X128.537 Y191.328
M204 S500
M205 X20 Y20
G1 F1800 X88.669 Y151.46 E108.45559
M204 S5000
M205 X30 Y30
G0 F3600 X88.669 Y150.894
M204 S500
M205 X20 Y20
G1 F1800 X129.103 Y191.328 E110.35748
M204 S5000
M205 X30 Y30
G0 F3600 X129.669 Y191.328
M204 S500
M205 X20 Y20
G1 F1800 X88.669 Y150.328 E112.28599
M204 S5000
M205 X30 Y30
G0 F3600 X88.669 Y149.763
M204 S500
M205 X20 Y20
G1 F1800 X130.234 Y191.328 E114.24108
M204 S5000
M205 X30 Y30
G0 F3600 X130.8 Y191.328
M204 S500
M205 X20 Y20
G1 F1800 X88.669 Y149.197 E116.2228
M204 S5000
M205 X30 Y30
G0 F3600 X88.669 Y148.631
M204 S500
M205 X20 Y20
G1 F1800 X131.366 Y191.328 E118.23113
M204 S5000
M205 X30 Y30
G0 F3600 X131.931 Y191.328
M204 S500
M205 X20 Y20
G1 F1800 X88.669 Y148.066 E120.26605
M204 S5000
M205 X30 Y30
G0 F3600 X88.669 Y147.5
M204 S500
M205 X20 Y20
G1 F1800 X132.497 Y191.328 E122.32758
M204 S5000
M205 X30 Y30
G0 F3600 X133.063 Y191.328
M204 S500
M205 X20 Y20
G1 F1800 X88.669 Y146.934 E124.41574
M204 S5000
M205 X30 Y30
G0 F3600 X88.669 Y146.368
M204 S500
M205 X20 Y20
G1 F1800 X133.629 Y191.328 E126.53052
M204 S5000
M205 X30 Y30
G0 F3600 X134.194 Y191.328
M204 S500
M205 X20 Y20
G1 F1800 X88.669 Y145.803 E128.67187
M204 S5000
M205 X30 Y30
G0 F3600 X88.669 Y145.237
M204 S500
M205 X20 Y20
G1 F1800 X134.76 Y191.328 E130.83985
M204 S5000
M205 X30 Y30
G0 F3600 X135.326 Y191.328
M204 S500
M205 X20 Y20
G1 F1800 X88.669 Y144.671 E133.03446
M204 S5000
M205 X30 Y30
G0 F3600 X88.669 Y144.106
M204 S500
M205 X20 Y20
G1 F1800 X135.891 Y191.328 E135.25563
M204 S5000
M205 X30 Y30
G0 F3600 X136.457 Y191.328
M204 S500
M205 X20 Y20
G1 F1800 X88.669 Y143.54 E137.50344
M204 S5000
M205 X30 Y30
G0 F3600 X88.669 Y142.974
M204 S500
M205 X20 Y20
G1 F1800 X137.023 Y191.328 E139.77786
M204 S5000
M205 X30 Y30
G0 F3600 X137.588 Y191.328
M204 S500
M205 X20 Y20
G1 F1800 X88.669 Y142.409 E142.07886
M204 S5000
M205 X30 Y30
G0 F3600 X88.669 Y141.843
M204 S500
M205 X20 Y20
G1 F1800 X138.154 Y191.328 E144.40648
M204 S5000
M205 X30 Y30
G0 F3600 X138.72 Y191.328
M204 S500
M205 X20 Y20
G1 F1800 X88.669 Y141.277 E146.76073
M204 S5000
M205 X30 Y30
G0 F3600 X88.669 Y140.712
M204 S500
M205 X20 Y20
G1 F1800 X139.285 Y191.328 E149.14155
M204 S5000
M205 X30 Y30
G0 F3600 X139.851 Y191.328
M204 S500
M205 X20 Y20
G1 F1800 X88.669 Y140.146 E151.54899
M204 S5000
M205 X30 Y30
G0 F3600 X88.669 Y139.58
M204 S500
M205 X20 Y20
G1 F1800 X140.417 Y191.328 E153.98306
M204 S5000
M205 X30 Y30
G0 F3600 X140.982 Y191.328
M204 S500
M205 X20 Y20
G1 F1800 X88.669 Y139.015 E156.4437
M204 S5000
M205 X30 Y30
G0 F3600 X88.669 Y138.449
M204 S500
M205 X20 Y20
G1 F1800 X141.548 Y191.328 E158.93097
M204 S5000
M205 X30 Y30
G0 F3600 X142.114 Y191.328
M204 S500
M205 X20 Y20
G1 F1800 X88.669 Y137.883 E161.44486
M204 S5000
M205 X30 Y30
G0 F3600 X88.669 Y137.318
M204 S500
M205 X20 Y20
G1 F1800 X142.68 Y191.328 E163.98535
M204 S5000
M205 X30 Y30
G0 F3600 X143.245 Y191.328
M204 S500
M205 X20 Y20
G1 F1800 X88.669 Y136.752 E166.55243
M204 S5000
M205 X30 Y30
G0 F3600 X88.669 Y136.186
M204 S500
M205 X20 Y20
G1 F1800 X143.811 Y191.328 E169.14614
M204 S5000
M205 X30 Y30
G0 F3600 X144.377 Y191.328
M204 S500
M205 X20 Y20
G1 F1800 X88.669 Y135.62 E171.76648
M204 S5000
M205 X30 Y30
G0 F3600 X88.669 Y135.055
M204 S500
M205 X20 Y20
G1 F1800 X144.942 Y191.328 E174.41339
M204 S5000
M205 X30 Y30
G0 F3600 X145.508 Y191.328
M204 S500
M205 X20 Y20
G1 F1800 X88.669 Y134.489 E177.08692
M204 S5000
M205 X30 Y30
G0 F3600 X88.669 Y133.923
M204 S500
M205 X20 Y20
G1 F1800 X146.074 Y191.328 E179.78708
M204 S5000
M205 X30 Y30
G0 F3600 X146.33 Y191.019
M204 S500
M205 X20 Y20
G1 F1800 X88.669 Y133.358 E182.49927
M204 S5000
M205 X30 Y30
G0 F3600 X88.669 Y132.792
M204 S500
M205 X20 Y20
G1 F1800 X146.33 Y190.453 E185.21147
M204 S5000
M205 X30 Y30
G0 F3600 X146.33 Y189.887
M204 S500
M205 X20 Y20
G1 F1800 X88.669 Y132.226 E187.92367
M204 S5000
M205 X30 Y30
G0 F3600 X88.669 Y131.661
M204 S500
M205 X20 Y20
G1 F1800 X146.33 Y189.322 E190.63586
M204 S5000
M205 X30 Y30
G0 F3600 X146.33 Y188.756
M204 S500
M205 X20 Y20
G1 F1800 X88.669 Y131.095 E193.34806
M204 S5000
M205 X30 Y30
G0 F3600 X88.669 Y130.529
M204 S500
M205 X20 Y20
G1 F1800 X146.33 Y188.19 E196.06026
M204 S5000
M205 X30 Y30
G0 F3600 X146.33 Y187.625
M204 S500
M205 X20 Y20
G1 F1800 X88.669 Y129.964 E198.77245
M204 S5000
M205 X30 Y30
G0 F3600 X88.669 Y129.398
M204 S500
M205 X20 Y20
G1 F1800 X146.33 Y187.059 E201.48465
M204 S5000
M205 X30 Y30
G0 F3600 X146.33 Y186.493
M204 S500
M205 X20 Y20
G1 F1800 X88.669 Y128.832 E204.19685
M204 S5000
M205 X30 Y30
G0 F3600 X88.669 Y128.267
M204 S500
M205 X20 Y20
G1 F1800 X146.33 Y185.928 E206.90904
M204 S5000
M205 X30 Y30
G0 F3600 X146.33 Y185.362
M204 S500
M205 X20 Y20
G1 F1800 X88.669 Y127.701 E209.62124
M204 S5000
M205 X30 Y30
G0 F3600 X88.669 Y127.135
M204 S500
M205 X20 Y20
G1 F1800 X146.33 Y184.796 E212.33344
M204 S5000
M205 X30 Y30
G0 F3600 X146.33 Y184.231
M204 S500
M205 X20 Y20
G1 F1800 X88.669 Y126.569 E215.04566
M204 S5000
M205 X30 Y30
G0 F3600 X88.669 Y126.004
M204 S500
M205 X20 Y20
G1 F1800 X146.33 Y183.665 E217.75785
M204 S5000
M205 X30 Y30
G0 F3600 X146.33 Y183.099
M204 S500
M205 X20 Y20
G1 F1800 X88.669 Y125.438 E220.47005
M204 S5000
M205 X30 Y30
G0 F3600 X88.669 Y124.872
M204 S500
M205 X20 Y20
G1 F1800 X146.33 Y182.533 E223.18225
M204 S5000
M205 X30 Y30
G0 F3600 X146.33 Y181.968
M204 S500
M205 X20 Y20
G1 F1800 X88.669 Y124.307 E225.89444
M204 S5000
M205 X30 Y30
G0 F3600 X88.669 Y123.741
M204 S500
M205 X20 Y20
G1 F1800 X146.33 Y181.402 E228.60664
M204 S5000
M205 X30 Y30
G0 F3600 X146.33 Y180.836
M204 S500
M205 X20 Y20
G1 F1800 X88.669 Y123.175 E231.31884
M204 S5000
M205 X30 Y30
G0 F3600 X88.669 Y122.61
M204 S500
M205 X20 Y20
G1 F1800 X146.33 Y180.271 E234.03103
M204 S5000
M205 X30 Y30
G0 F3600 X146.33 Y179.705
M204 S500
M205 X20 Y20
G1 F1800 X88.669 Y122.044 E236.74323
M204 S5000
M205 X30 Y30
G0 F3600 X88.669 Y121.478
M204 S500
M205 X20 Y20
G1 F1800 X146.33 Y179.139 E239.45543
M204 S5000
M205 X30 Y30
G0 F3600 X146.33 Y178.574
M204 S500
M205 X20 Y20
G1 F1800 X88.669 Y120.913 E242.16762
M204 S5000
M205 X30 Y30
G0 F3600 X88.669 Y120.347
M204 S500
M205 X20 Y20
G1 F1800 X146.33 Y178.008 E244.87982
M204 S5000
M205 X30 Y30
G0 F3600 X146.33 Y177.442
M204 S500
M205 X20 Y20
G1 F1800 X88.669 Y119.781 E247.59202
M204 S5000
M205 X30 Y30
G0 F3600 X88.669 Y119.216
M204 S500
M205 X20 Y20
G1 F1800 X146.33 Y176.877 E250.30421
M204 S5000
M205 X30 Y30
G0 F3600 X146.33 Y176.311
M204 S500
M205 X20 Y20
G1 F1800 X88.669 Y118.65 E253.01641
M204 S5000
M205 X30 Y30
G0 F3600 X88.669 Y118.084
M204 S500
M205 X20 Y20
G1 F1800 X146.33 Y175.745 E255.72861
M204 S5000
M205 X30 Y30
G0 F3600 X146.33 Y175.18
M204 S500
M205 X20 Y20
G1 F1800 X88.669 Y117.519 E258.4408
M204 S5000
M205 X30 Y30
G0 F3600 X88.669 Y116.953
M204 S500
M205 X20 Y20
G1 F1800 X146.33 Y174.614 E261.153
M204 S5000
M205 X30 Y30
G0 F3600 X146.33 Y174.048
M204 S500
M205 X20 Y20
G1 F1800 X88.669 Y116.387 E263.8652
M204 S5000
M205 X30 Y30
