;FLAVOR:Marlin
;TIME:4272
;Filament used: 4.05462m
;Layer height: 0.15
;Generated with Cura_SteamEngine 4.0.0
M140 S60
M105
M190 S60
M104 S210
M105
M109 S210
M82 ;absolute extrusion mode
; Ender 3 Custom Start G-code
G28 ; Home all axes
G92 E0 ; Reset Extruder
G1 Z2.0 F3000 ; Move Z Axis up little to prevent scratching of Heat Bed
G1 X0.1 Y20 Z0.3 F5000.0 ; Move to start position
G1 X0.1 Y200.0 Z0.3 F1500.0 E15 ; Draw the first line
G1 X0.4 Y200.0 Z0.3 F5000.0 ; Move to side a little
G1 X0.4 Y20 Z0.3 F1500.0 E30 ; Draw the second line
G92 E0 ; Reset Extruder
G1 Z2.0 F3000 ; Move Z Axis up little to prevent scratching of Heat Bed
; End of custom start GCode
G92 E0
G1 F2400 E-5
;LAYER_COUNT:120
;LAYER:0
M107
M204 S5000
M205 X30 Y30
;MESH:stepper mound.stl
G0 F3600 X118.46 Y141.546 Z0.2
M204 S500
M205 X20 Y20
;TYPE:WALL-INNER
G1 F2400 E0
G1 F1800 X117.695 Y141.402 E0.02589
G1 X116.918 Y141.45 E0.05178
G1 X116.178 Y141.691 E0.07767
G1 X115.521 Y142.108 E0.10355
G1 X114.988 Y142.676 E0.12946
G1 X114.614 Y143.358 E0.15533
G1 X114.42 Y144.111 E0.18119
G1 X114.42 Y144.889 E0.20707
G1 X114.614 Y145.642 E0.23293
G1 X114.988 Y146.324 E0.2588
G1 X115.521 Y146.892 E0.28471
G1 X116.178 Y147.309 E0.31059
G1 X116.769 Y147.502 E0.33127
G1 X116.918 Y147.55 E0.33647
G1 X117.695 Y147.598 E0.36237
G1 X118.211 Y147.501 E0.37983
G1 X118.46 Y147.454 E0.38826
G1 X119.164 Y147.121 E0.41416
G1 X119.763 Y146.625 E0.44003
G1 X120.221 Y145.995 E0.46593
G1 X120.506 Y145.272 E0.49178
G1 X120.605 Y144.5 E0.51767
G1 X120.506 Y143.728 E0.54355
G1 X120.221 Y143.005 E0.5694
G1 X119.763 Y142.375 E0.59531
G1 X119.164 Y141.879 E0.62117
G1 X118.46 Y141.546 E0.64708
M204 S5000
M205 X30 Y30
G0 F3600 X118.49 Y141.451
G0 X131.83 Y147.83
G0 X131.9 Y147.9
M204 S500
M205 X20 Y20
G1 F1800 X118.22 Y147.9 E1.10207
G1 X117.695 Y147.9 E1.11741
G1 X116.918 Y147.9 E1.13847
G1 X116.761 Y147.9 E1.14337
G1 X103.1 Y147.9 E1.59774
G1 X103.1 Y87.1 E3.61995
G1 X131.9 Y87.1 E4.57784
G1 X131.9 Y147.9 E6.60006
M204 S5000
M205 X30 Y30
G0 F3600 X132.3 Y148.3
M204 S500
M205 X20 Y20
;TYPE:WALL-OUTER
G1 F1800 X102.7 Y148.3 E7.58456
G1 X102.7 Y86.7 E9.63339
G1 X132.3 Y86.7 E10.61789
G1 X132.3 Y148.3 E12.66671
M204 S5000
M205 X30 Y30
G0 F3600 X132.1 Y148.3
G0 X131.83 Y147.83
G0 X120.697 Y144.563
G0 X120.202 Y144.5
M204 S500
M205 X20 Y20
G1 F1800 X120.116 Y143.828 E12.68924
G1 X119.868 Y143.199 E12.71173
G1 X119.469 Y142.651 E12.73428
G1 X118.948 Y142.219 E12.75679
G1 X118.335 Y141.93 E12.77933
G1 X117.67 Y141.804 E12.80184
G1 X116.994 Y141.846 E12.82437
G1 X116.35 Y142.056 E12.8469
G1 X115.778 Y142.419 E12.86943
G1 X115.314 Y142.913 E12.89197
G1 X114.989 Y143.506 E12.91446
G1 X114.82 Y144.162 E12.93699
G1 X114.82 Y144.838 E12.95948
G1 X114.989 Y145.494 E12.98201
G1 X115.314 Y146.087 E13.0045
G1 X115.778 Y146.581 E13.02704
G1 X116.35 Y146.944 E13.04957
G1 X116.994 Y147.154 E13.0721
G1 X117.67 Y147.196 E13.09463
G1 X118.335 Y147.07 E13.11714
G1 X118.948 Y146.781 E13.13968
G1 X119.469 Y146.349 E13.16219
G1 X119.868 Y145.801 E13.18474
G1 X120.116 Y145.172 E13.20723
G1 X120.202 Y144.5 E13.22976
M204 S5000
M205 X30 Y30
G0 F3600 X120.177 Y144.302
G0 X120.999 Y144.5
M204 S500
M205 X20 Y20
;TYPE:SKIN
G1 F1800 X120.886 Y143.63 E13.25894
G1 X120.566 Y142.816 E13.28803
G1 X120.05 Y142.106 E13.31722
G1 X119.375 Y141.547 E13.34637
G1 X118.581 Y141.172 E13.37558
G1 X117.72 Y141.01 E13.40472
G1 X116.844 Y141.064 E13.43391
G1 X116.01 Y141.336 E13.46309
G1 X115.27 Y141.805 E13.49222
G1 X114.67 Y142.446 E13.52143
G1 X114.249 Y143.214 E13.55056
G1 X114.03 Y144.062 E13.57969
G1 X114.03 Y144.938 E13.60882
G1 X114.249 Y145.786 E13.63795
G1 X114.67 Y146.554 E13.66708
G1 X115.27 Y147.195 E13.69629
G1 X115.767 Y147.51 E13.71586
G1 X103.49 Y147.51 E14.12419
G1 X103.49 Y87.49 E16.12046
G1 X131.51 Y87.49 E17.05241
G1 X131.51 Y147.51 E19.04869
G1 X119.254 Y147.51 E19.45632
G1 X119.375 Y147.453 E19.46077
G1 X120.05 Y146.894 E19.48992
G1 X120.566 Y146.184 E19.51911
G1 X120.886 Y145.37 E19.5482
G1 X120.999 Y144.5 E19.57738
M204 S5000
M205 X30 Y30
G0 F3600 X120.256 Y146.014
G0 X119.792 Y146.652
G0 X119.185 Y147.154
G0 X118.472 Y147.492
G0 X117.845 Y147.609
G0 X103.771 Y147.329
M204 S500
M205 X20 Y20
G1 F1800 X103.668 Y147.226 E19.58223
M204 S5000
M205 X30 Y30
G0 F3600 X103.668 Y146.661
M204 S500
M205 X20 Y20
G1 F1800 X104.337 Y147.329 E19.61367
M204 S5000
M205 X30 Y30
G0 F3600 X104.902 Y147.329
M204 S500
M205 X20 Y20
G1 F1800 X103.668 Y146.095 E19.67172
M204 S5000
M205 X30 Y30
G0 F3600 X103.668 Y145.529
M204 S500
M205 X20 Y20
G1 F1800 X105.468 Y147.329 E19.75638
M204 S5000
M205 X30 Y30
G0 F3600 X106.034 Y147.329
M204 S500
M205 X20 Y20
G1 F1800 X103.668 Y144.963 E19.86767
M204 S5000
M205 X30 Y30
G0 F3600 X103.668 Y144.398
M204 S500
M205 X20 Y20
G1 F1800 X106.599 Y147.329 E20.00554
M204 S5000
M205 X30 Y30
G0 F3600 X107.165 Y147.329
M204 S500
M205 X20 Y20
G1 F1800 X103.668 Y143.832 E20.17003
M204 S5000
M205 X30 Y30
G0 F3600 X103.668 Y143.266
M204 S500
M205 X20 Y20
G1 F1800 X107.731 Y147.329 E20.36114
M204 S5000
M205 X30 Y30
G0 F3600 X108.296 Y147.329
M204 S500
M205 X20 Y20
G1 F1800 X103.668 Y142.701 E20.57882
M204 S5000
M205 X30 Y30
G0 F3600 X103.668 Y142.135
M204 S500
M205 X20 Y20
G1 F1800 X108.862 Y147.329 E20.82313
M204 S5000
M205 X30 Y30
G0 F3600 X109.428 Y147.329
M204 S500
M205 X20 Y20
G1 F1800 X103.668 Y141.569 E21.09407
M204 S5000
M205 X30 Y30
G0 F3600 X103.668 Y141.004
M204 S500
M205 X20 Y20
G1 F1800 X109.993 Y147.329 E21.39157
M204 S5000
M205 X30 Y30
G0 F3600 X110.559 Y147.329
M204 S500
M205 X20 Y20
G1 F1800 X103.668 Y140.438 E21.71571
M204 S5000
M205 X30 Y30
G0 F3600 X103.668 Y139.872
M204 S500
M205 X20 Y20
G1 F1800 X111.125 Y147.329 E22.06646
M204 S5000
M205 X30 Y30
G0 F3600 X111.691 Y147.329
M204 S500
M205 X20 Y20
G1 F1800 X103.668 Y139.307 E22.44381
M204 S5000
M205 X30 Y30
G0 F3600 X103.668 Y138.741
M204 S500
M205 X20 Y20
G1 F1800 X112.256 Y147.329 E22.84777
M204 S5000
M205 X30 Y30
G0 F3600 X112.822 Y147.329
M204 S500
M205 X20 Y20
G1 F1800 X103.668 Y138.175 E23.27834
M204 S5000
M205 X30 Y30
G0 F3600 X103.668 Y137.61
M204 S500
M205 X20 Y20
G1 F1800 X113.388 Y147.329 E23.73552
M204 S5000
M205 X30 Y30
G0 F3600 X113.953 Y147.329
M204 S500
M205 X20 Y20
G1 F1800 X103.668 Y137.044 E24.21929
M204 S5000
M205 X30 Y30
G0 F3600 X103.668 Y136.478
M204 S500
M205 X20 Y20
G1 F1800 X114.519 Y147.329 E24.72969
M204 S5000
M205 X30 Y30
G0 F3600 X115.085 Y147.329
M204 S500
M205 X20 Y20
G1 F1800 X103.668 Y135.912 E25.26671
M204 S5000
M205 X30 Y30
G0 F3600 X103.668 Y135.347
M204 S500
M205 X20 Y20
G1 F1800 X114.049 Y145.727 E25.75498
M204 S5000
M205 X30 Y30
G0 F3600 X113.849 Y144.962
M204 S500
M205 X20 Y20
G1 F1800 X103.668 Y134.781 E26.23386
M204 S5000
M205 X30 Y30
G0 F3600 X103.668 Y134.215
M204 S500
M205 X20 Y20
G1 F1800 X113.849 Y144.396 E26.71274
M204 S5000
M205 X30 Y30
G0 F3600 X113.892 Y143.873
M204 S500
M205 X20 Y20
G1 F1800 X103.668 Y133.65 E27.19363
M204 S5000
M205 X30 Y30
G0 F3600 X103.668 Y133.084
M204 S500
M205 X20 Y20
G1 F1800 X114.008 Y143.424 E27.67999
M204 S5000
M205 X30 Y30
G0 F3600 X114.158 Y143.008
M204 S500
M205 X20 Y20
G1 F1800 X103.668 Y132.518 E28.17341
M204 S5000
M205 X30 Y30
G0 F3600 X103.668 Y131.953
M204 S500
M205 X20 Y20
G1 F1800 X114.358 Y142.642 E28.67621
M204 S5000
M205 X30 Y30
G0 F3600 X114.571 Y142.289
M204 S500
M205 X20 Y20
G1 F1800 X103.668 Y131.387 E29.18903
M204 S5000
M205 X30 Y30
G0 F3600 X103.668 Y130.821
M204 S500
M205 X20 Y20
G1 F1800 X114.844 Y141.997 E29.71471
M204 S5000
M205 X30 Y30
G0 F3600 X115.117 Y141.704
M204 S500
M205 X20 Y20
G1 F1800 X103.668 Y130.256 E30.25321
M204 S5000
M205 X30 Y30
G0 F3600 X103.668 Y129.69
M204 S500
M205 X20 Y20
G1 F1800 X115.453 Y141.475 E30.80755
M204 S5000
M205 X30 Y30
G0 F3600 X115.8 Y141.255
M204 S500
M205 X20 Y20
G1 F1800 X103.668 Y129.124 E31.37817
M204 S5000
M205 X30 Y30
G0 F3600 X103.668 Y128.559
M204 S500
M205 X20 Y20
G1 F1800 X116.195 Y141.085 E31.96738
M204 S5000
M205 X30 Y30
G0 F3600 X116.621 Y140.946
M204 S500
M205 X20 Y20
G1 F1800 X103.668 Y127.993 E32.57665
M204 S5000
M205 X30 Y30
G0 F3600 X103.668 Y127.427
M204 S500
M205 X20 Y20
G1 F1800 X117.107 Y140.866 E33.20878
M204 S5000
M205 X30 Y30
G0 F3600 X117.639 Y140.833
M204 S500
M205 X20 Y20
G1 F1800 X103.668 Y126.862 E33.86593
M204 S5000
M205 X30 Y30
G0 F3600 X103.668 Y126.296
M204 S500
M205 X20 Y20
G1 F1800 X118.309 Y140.936 E34.55458
G1 X118.379 Y141.006
M204 S5000
M205 X30 Y30
G0 F3600 X119.205 Y141.267
M204 S500
M205 X20 Y20
G1 F1800 X103.668 Y125.73 E35.28539
M204 S5000
M205 X30 Y30
G0 F3600 X103.668 Y125.164
M204 S500
M205 X20 Y20
G1 F1800 X125.833 Y147.329 E36.32796
M204 S5000
M205 X30 Y30
G0 F3600 X126.398 Y147.329
M204 S500
M205 X20 Y20
G1 F1800 X103.668 Y124.599 E37.39711
M204 S5000
M205 X30 Y30
G0 F3600 X103.668 Y124.033
M204 S500
M205 X20 Y20
G1 F1800 X126.964 Y147.329 E38.49289
M204 S5000
M205 X30 Y30
G0 F3600 X127.53 Y147.329
M204 S500
M205 X20 Y20
G1 F1800 X103.668 Y123.467 E39.61528
M204 S5000
M205 X30 Y30
G0 F3600 X103.668 Y122.902
M204 S500
M205 X20 Y20
G1 F1800 X128.095 Y147.329 E40.76425
M204 S5000
M205 X30 Y30
G0 F3600 X128.661 Y147.329
M204 S500
M205 X20 Y20
G1 F1800 X103.668 Y122.336 E41.93985
M204 S5000
M205 X30 Y30
G0 F3600 X103.668 Y121.77
M204 S500
M205 X20 Y20
G1 F1800 X129.227 Y147.329 E43.14206
M204 S5000
M205 X30 Y30
G0 F3600 X129.792 Y147.329
M204 S500
M205 X20 Y20
G1 F1800 X103.668 Y121.205 E44.37086
M204 S5000
M205 X30 Y30
G0 F3600 X103.668 Y120.639
M204 S500
M205 X20 Y20
G1 F1800 X130.358 Y147.329 E45.62627
M204 S5000
M205 X30 Y30
G0 F3600 X130.924 Y147.329
M204 S500
M205 X20 Y20
G1 F1800 X103.668 Y120.073 E46.90831
M204 S5000
M205 X30 Y30
G0 F3600 X103.668 Y119.508
M204 S500
M205 X20 Y20
G1 F1800 X131.33 Y147.169 E48.20942
M204 S5000
M205 X30 Y30
G0 F3600 X131.33 Y146.603
M204 S500
M205 X20 Y20
G1 F1800 X103.668 Y118.942 E49.51054
M204 S5000
M205 X30 Y30
G0 F3600 X103.668 Y118.376
M204 S500
M205 X20 Y20
G1 F1800 X131.33 Y146.038 E50.81167
M204 S5000
M205 X30 Y30
G0 F3600 X131.33 Y145.472
M204 S500
M205 X20 Y20
G1 F1800 X103.668 Y117.811 E52.11278
M204 S5000
M205 X30 Y30
G0 F3600 X103.668 Y117.245
M204 S500
M205 X20 Y20
G1 F1800 X131.33 Y144.906 E53.4139
M204 S5000
M205 X30 Y30
G0 F3600 X131.33 Y144.341
M204 S500
M205 X20 Y20
G1 F1800 X103.668 Y116.679 E54.71503
M204 S5000
M205 X30 Y30
G0 F3600 X103.668 Y116.114
M204 S500
M205 X20 Y20
G1 F1800 X131.33 Y143.775 E56.01614
M204 S5000
M205 X30 Y30
G0 F3600 X131.33 Y143.209
M204 S500
M205 X20 Y20
G1 F1800 X103.668 Y115.548 E57.31726
M204 S5000
M205 X30 Y30
G0 F3600 X103.668 Y114.982
M204 S500
M205 X20 Y20
G1 F1800 X131.33 Y142.643 E58.61837
M204 S5000
M205 X30 Y30
G0 F3600 X131.33 Y142.078
M204 S500
M205 X20 Y20
G1 F1800 X103.668 Y114.416 E59.9195
M204 S5000
M205 X30 Y30
G0 F3600 X103.668 Y113.851
M204 S500
M205 X20 Y20
G1 F1800 X131.33 Y141.512 E61.22062
M204 S5000
M205 X30 Y30
G0 F3600 X131.33 Y140.946
M204 S500
M205 X20 Y20
G1 F1800 X103.668 Y113.285 E62.52173
M204 S5000
M205 X30 Y30
G0 F3600 X103.668 Y112.719
M204 S500
M205 X20 Y20
G1 F1800 X131.33 Y140.381 E63.82286
M204 S5000
M205 X30 Y30
G0 F3600 X131.33 Y139.815
M204 S500
M205 X20 Y20
G1 F1800 X103.668 Y112.154 E65.12398
M204 S5000
M205 X30 Y30
G0 F3600 X103.668 Y111.588
M204 S500
M205 X20 Y20
G1 F1800 X131.33 Y139.249 E66.42509
M204 S5000
M205 X30 Y30
G0 F3600 X131.33 Y138.684
M204 S500
M205 X20 Y20
G1 F1800 X103.668 Y111.022 E67.72622
M204 S5000
M205 X30 Y30
G0 F3600 X103.668 Y110.457
M204 S500
M205 X20 Y20
G1 F1800 X131.33 Y138.118 E69.02734
M204 S5000
M205 X30 Y30
G0 F3600 X131.33 Y137.552
M204 S500
M205 X20 Y20
G1 F1800 X103.668 Y109.891 E70.32845
M204 S5000
M205 X30 Y30
G0 F3600 X103.668 Y109.325
M204 S500
M205 X20 Y20
G1 F1800 X131.33 Y136.987 E71.62958
M204 S5000
M205 X30 Y30
G0 F3600 X131.33 Y136.421
M204 S500
M205 X20 Y20
G1 F1800 X103.668 Y108.76 E72.9307
M204 S5000
M205 X30 Y30
G0 F3600 X103.668 Y108.194
M204 S500
M205 X20 Y20
G1 F1800 X131.33 Y135.855 E74.23181
M204 S5000
M205 X30 Y30
G0 F3600 X131.33 Y135.29
M204 S500
M205 X20 Y20
G1 F1800 X103.668 Y107.628 E75.53294
M204 S5000
M205 X30 Y30
G0 F3600 X103.668 Y107.063
M204 S500
M205 X20 Y20
G1 F1800 X131.33 Y134.724 E76.83406
M204 S5000
M205 X30 Y30
G0 F3600 X131.33 Y134.158
M204 S500
M205 X20 Y20
G1 F1800 X103.668 Y106.497 E78.13517
M204 S5000
M205 X30 Y30
G0 F3600 X103.668 Y105.931
M204 S500
M205 X20 Y20
G1 F1800 X131.33 Y133.592 E79.43628
M204 S5000
M205 X30 Y30
G0 F3600 X131.33 Y133.027
M204 S500
M205 X20 Y20
G1 F1800 X103.668 Y105.365 E80.73742
M204 S5000
M205 X30 Y30
G0 F3600 X103.668 Y104.8
M204 S500
M205 X20 Y20
G1 F1800 X131.33 Y132.461 E82.03853
M204 S5000
M205 X30 Y30
G0 F3600 X131.33 Y131.895
M204 S500
M205 X20 Y20
G1 F1800 X103.668 Y104.234 E83.33964
M204 S5000
M205 X30 Y30
G0 F3600 X103.668 Y103.668
M204 S500
M205 X20 Y20
G1 F1800 X131.33 Y131.33 E84.64078
M204 S5000
M205 X30 Y30
G0 F3600 X131.33 Y130.764
M204 S500
M205 X20 Y20
G1 F1800 X103.668 Y103.103 E85.94189
M204 S5000
M205 X30 Y30
G0 F3600 X103.668 Y102.537
M204 S500
M205 X20 Y20
G1 F1800 X131.33 Y130.198 E87.243
M204 S5000
M205 X30 Y30
G0 F3600 X131.33 Y129.633
M204 S500
M205 X20 Y20
G1 F1800 X103.668 Y101.971 E88.54414
M204 S5000
M205 X30 Y30
G0 F3600 X103.668 Y101.406
M204 S500
M205 X20 Y20
G1 F1800 X131.33 Y129.067 E89.84525
M204 S5000
M205 X30 Y30
G0 F3600 X131.33 Y128.501
M204 S500
M205 X20 Y20
G1 F1800 X103.668 Y100.84 E91.14636
M204 S5000
M205 X30 Y30
G0 F3600 X103.668 Y100.274
M204 S500
M205 X20 Y20
G1 F1800 X131.33 Y127.936 E92.4475
M204 S5000
M205 X30 Y30
G0 F3600 X131.33 Y127.37
M204 S500
M205 X20 Y20
G1 F1800 X103.668 Y99.709 E93.74861
M204 S5000
M205 X30 Y30
G0 F3600 X103.668 Y99.143
M204 S500
M205 X20 Y20
G1 F1800 X131.33 Y126.804 E95.04972
M204 S5000
M205 X30 Y30
G0 F3600 X131.33 Y126.239
M204 S500
M205 X20 Y20
G1 F1800 X103.668 Y98.577 E96.35086
M204 S5000
M205 X30 Y30
G0 F3600 X103.668 Y98.012
M204 S500
M205 X20 Y20
G1 F1800 X131.33 Y125.673 E97.65197
M204 S5000
M205 X30 Y30
G0 F3600 X131.33 Y125.107
M204 S500
M205 X20 Y20
G1 F1800 X103.668 Y97.446 E98.95308
M204 S5000
M205 X30 Y30
G0 F3600 X103.668 Y96.88
M204 S500
M205 X20 Y20
G1 F1800 X131.33 Y124.542 E100.25422
M204 S5000
M205 X30 Y30
G0 F3600 X131.33 Y123.976
M204 S500
M205 X20 Y20
G1 F1800 X103.668 Y96.315 E101.55533
M204 S5000
M205 X30 Y30
G0 F3600 X103.668 Y95.749
M204 S500
M205 X20 Y20
G1 F1800 X131.33 Y123.41 E102.85644
M204 S5000
M205 X30 Y30
G0 F3600 X131.33 Y122.844
M204 S500
M205 X20 Y20
G1 F1800 X103.668 Y95.183 E104.15755
M204 S5000
M205 X30 Y30
G0 F3600 X103.668 Y94.617
M204 S500
M205 X20 Y20
G1 F1800 X131.33 Y122.279 E105.45869
M204 S5000
M205 X30 Y30
G0 F3600 X131.33 Y121.713
M204 S500
M205 X20 Y20
G1 F1800 X103.668 Y94.052 E106.7598
M204 S5000
M205 X30 Y30
G0 F3600 X103.668 Y93.486
M204 S500
M205 X20 Y20
G1 F1800 X131.33 Y121.147 E108.06091
M204 S5000
M205 X30 Y30
G0 F3600 X131.33 Y120.582
M204 S500
M205 X20 Y20
G1 F1800 X103.668 Y92.92 E109.36205
M204 S5000
M205 X30 Y30
G0 F3600 X103.668 Y92.355
M204 S500
M205 X20 Y20
G1 F1800 X131.33 Y120.016 E110.66316
M204 S5000
M205 X30 Y30
G0 F3600 X131.33 Y119.45
M204 S500
M205 X20 Y20
G1 F1800 X103.668 Y91.789 E111.96427
M204 S5000
M205 X30 Y30
G0 F3600 X103.668 Y91.223
M204 S500
M205 X20 Y20
G1 F1800 X131.33 Y118.885 E113.26541
M204 S5000
M205 X30 Y30
G0 F3600 X131.33 Y118.319
M204 S500
M205 X20 Y20
G1 F1800 X103.668 Y90.658 E114.56652
M204 S5000
M205 X30 Y30
G0 F3600 X103.668 Y90.092
M204 S500
M205 X20 Y20
G1 F1800 X131.33 Y117.753 E115.86763
M204 S5000
M205 X30 Y30
G0 F3600 X131.33 Y117.188
M204 S500
M205 X20 Y20
G1 F1800 X103.668 Y89.526 E117.16877
M204 S5000
M205 X30 Y30
G0 F3600 X103.668 Y88.961
M204 S500
M205 X20 Y20
G1 F1800 X131.33 Y116.622 E118.46988
M204 S5000
M205 X30 Y30
G0 F3600 X131.33 Y116.056
M204 S500
M205 X20 Y20
G1 F1800 X103.668 Y88.395 E119.77099
M204 S5000
M205 X30 Y30
G0 F3600 X103.668 Y87.829
M204 S500
M205 X20 Y20
G1 F1800 X131.33 Y115.491 E121.07213
M204 S5000
M205 X30 Y30
G0 F3600 X131.33 Y114.925
M204 S500
M205 X20 Y20
G1 F1800 X104.074 Y87.669 E122.35417
M204 S5000
M205 X30 Y30
G0 F3600 X104.64 Y87.669
M204 S500
M205 X20 Y20
