;FLAVOR:Marlin
;TIME:201
;Filament used: 0.117409m
;Layer height: 0.2
;Generated with Cura_SteamEngine 4.0.0
M140 S65
M105
M190 S65
M104 S210
M105
M109 S210
M82 ;absolute extrusion mode
; Ender 3 Custom Start G-code
G28 ; Home all axes
G92 E0 ; Reset Extruder
G1 Z2.0 F3000 ; Move Z Axis up little to prevent scratching of Heat Bed
G1 X0.1 Y20 Z0.3 F5000.0 ; Move to start position
G1 X0.1 Y200.0 Z0.3 F1500.0 E15 ; Draw the first line
G1 X0.4 Y200.0 Z0.3 F5000.0 ; Move to side a little
G1 X0.4 Y20 Z0.3 F1500.0 E30 ; Draw the second line
G92 E0 ; Reset Extruder
G1 Z2.0 F3000 ; Move Z Axis up little to prevent scratching of Heat Bed
; End of custom start GCode
G92 E0
G1 F1500 E-6
;LAYER_COUNT:2
;LAYER:0
M107
;MESH:stepper mount test.stl
G0 F2400 X102.681 Y104.098 Z0.2
;TYPE:WALL-INNER
G1 F1500 E0
G1 F1200 X103.181 Y103.861 E0.0184
G1 X103.607 Y103.509 E0.03678
G1 X103.932 Y103.062 E0.05517
G1 X104.135 Y102.548 E0.07355
G1 X104.205 Y102 E0.09192
G1 X104.135 Y101.452 E0.1103
G1 X103.932 Y100.938 E0.12868
G1 X103.607 Y100.491 E0.14706
G1 X103.181 Y100.139 E0.16544
G1 X102.681 Y99.902 E0.18384
G1 X102.138 Y99.8 E0.20222
G1 X101.586 Y99.834 E0.22061
G1 X101.061 Y100.005 E0.23898
G1 X100.594 Y100.302 E0.25738
G1 X100.217 Y100.705 E0.27574
G1 X99.95 Y101.188 E0.29409
G1 X99.813 Y101.724 E0.31249
G1 X99.813 Y102.276 E0.33085
G1 X99.95 Y102.812 E0.34925
G1 X100.217 Y103.295 E0.36761
G1 X100.594 Y103.698 E0.38597
G1 X101.061 Y103.995 E0.40437
G1 X101.586 Y104.166 E0.42274
G1 X102.138 Y104.2 E0.44113
G1 X102.681 Y104.098 E0.45951
G0 F2400 X102.711 Y104.193
G0 X108.873 Y108.873
G0 X108.943 Y108.943
G1 F1200 X108.355 Y109.576 E0.48824
G1 X107.813 Y110.248 E0.51696
G1 X107.321 Y110.959 E0.54572
G1 X106.88 Y111.701 E0.57442
G1 X106.493 Y112.474 E0.60318
G1 X106.162 Y113.271 E0.63188
G1 X105.89 Y114.091 E0.66061
G1 X105.676 Y114.927 E0.68932
G1 X105.523 Y115.777 E0.71804
G1 X105.43 Y116.638 E0.74685
G1 X105.4 Y117.5 E0.77553
G1 X105.43 Y118.362 E0.80422
G1 X105.523 Y119.223 E0.83302
G1 X105.676 Y120.073 E0.86175
G1 X105.89 Y120.909 E0.89045
G1 X106.162 Y121.729 E0.91919
G1 X106.493 Y122.526 E0.94789
G1 X106.88 Y123.299 E0.97664
G1 X107.321 Y124.041 E1.00535
G1 X107.813 Y124.752 E1.03411
G1 X108.355 Y125.424 E1.06282
G1 X108.943 Y126.057 E1.09156
G1 X109.576 Y126.645 E1.12029
G1 X110.248 Y127.187 E1.14901
G1 X110.959 Y127.679 E1.17777
G1 X111.701 Y128.12 E1.20648
G1 X112.474 Y128.507 E1.23523
G1 X113.271 Y128.838 E1.26393
G1 X114.091 Y129.11 E1.29267
G1 X114.927 Y129.324 E1.32137
G1 X115.777 Y129.477 E1.35009
G1 X116.638 Y129.57 E1.3789
G1 X117.5 Y129.6 E1.40758
G1 X118.362 Y129.57 E1.43627
G1 X119.223 Y129.477 E1.46508
G1 X120.073 Y129.324 E1.4938
G1 X120.909 Y129.11 E1.5225
G1 X121.729 Y128.838 E1.55124
G1 X122.526 Y128.507 E1.57994
G1 X123.299 Y128.12 E1.60869
G1 X124.041 Y127.679 E1.6374
G1 X124.752 Y127.187 E1.66616
G1 X125.424 Y126.645 E1.69487
G1 X126.057 Y126.057 E1.72361
G1 X126.645 Y125.424 E1.75235
G1 X127.187 Y124.752 E1.78106
G1 X127.679 Y124.041 E1.80982
G1 X128.12 Y123.299 E1.83853
G1 X128.507 Y122.526 E1.86728
G1 X128.838 Y121.729 E1.89598
G1 X129.11 Y120.909 E1.92472
G1 X129.324 Y120.073 E1.95342
G1 X129.477 Y119.223 E1.98214
G1 X129.57 Y118.362 E2.01095
G1 X129.6 Y117.5 E2.03964
G1 X129.57 Y116.638 E2.06832
G1 X129.477 Y115.777 E2.09713
G1 X129.324 Y114.927 E2.12585
G1 X129.11 Y114.091 E2.15455
G1 X128.838 Y113.271 E2.18329
G1 X128.507 Y112.474 E2.21199
G1 X128.12 Y111.701 E2.24074
G1 X127.679 Y110.959 E2.26945
G1 X127.187 Y110.248 E2.29821
G1 X126.645 Y109.576 E2.32693
G1 X126.057 Y108.943 E2.35566
G1 X125.424 Y108.355 E2.3844
G1 X124.752 Y107.813 E2.41311
G1 X124.041 Y107.321 E2.44187
G1 X123.299 Y106.88 E2.47058
G1 X122.526 Y106.493 E2.49933
G1 X121.729 Y106.162 E2.52803
G1 X120.909 Y105.89 E2.55677
G1 X120.073 Y105.676 E2.58547
G1 X119.223 Y105.523 E2.6142
G1 X118.362 Y105.43 E2.643
G1 X117.5 Y105.4 E2.67169
G1 X116.638 Y105.43 E2.70037
G1 X115.777 Y105.523 E2.72918
G1 X114.927 Y105.676 E2.7579
G1 X114.091 Y105.89 E2.78661
G1 X113.271 Y106.162 E2.81534
G1 X112.474 Y106.493 E2.84404
G1 X111.701 Y106.88 E2.8728
G1 X110.959 Y107.321 E2.9015
G1 X110.248 Y107.813 E2.93026
G1 X109.576 Y108.355 E2.95898
G1 X108.943 Y108.943 E2.98771
G0 F2400 X108.873 Y108.873
G0 X110.225 Y107.781
G0 X111.682 Y106.845
G0 X113.258 Y106.125
G0 X114.919 Y105.637
G0 X116.309 Y105.439
G0 X133.711 Y104.193
G0 X133.681 Y104.098
G1 F1200 X134.181 Y103.861 E3.00612
G1 X134.607 Y103.509 E3.0245
G1 X134.932 Y103.062 E3.04288
G1 X135.135 Y102.548 E3.06126
G1 X135.205 Y102 E3.07963
G1 X135.135 Y101.452 E3.09801
G1 X134.932 Y100.938 E3.11639
G1 X134.607 Y100.491 E3.13477
G1 X134.181 Y100.139 E3.15315
G1 X133.681 Y99.902 E3.17155
G1 X133.138 Y99.8 E3.18993
G1 X132.586 Y99.834 E3.20832
G1 X132.061 Y100.005 E3.22669
G1 X131.594 Y100.302 E3.2451
G1 X131.217 Y100.705 E3.26345
G1 X130.95 Y101.188 E3.28181
G1 X130.813 Y101.724 E3.30021
G1 X130.813 Y102.276 E3.31857
G1 X130.95 Y102.812 E3.33697
G1 X131.217 Y103.295 E3.35532
G1 X131.594 Y103.698 E3.37368
G1 X132.061 Y103.995 E3.39209
G1 X132.586 Y104.166 E3.41045
G1 X133.138 Y104.2 E3.42884
G1 X133.681 Y104.098 E3.44722
G0 F2400 X133.711 Y104.193
G0 X135.245 Y133
G0 X135.173 Y133.557
G0 X134.967 Y134.081
G0 X134.636 Y134.536
G0 X134.514 Y134.637
G0 X133.711 Y135.193
G0 X133.681 Y135.098
G1 F1200 X134.181 Y134.861 E3.46562
G1 X134.607 Y134.509 E3.484
G1 X134.932 Y134.062 E3.50239
G1 X135.135 Y133.548 E3.52077
G1 X135.205 Y133 E3.53914
G1 X135.135 Y132.452 E3.55752
G1 X134.932 Y131.938 E3.5759
G1 X134.607 Y131.491 E3.59428
G1 X134.181 Y131.139 E3.61266
G1 X133.681 Y130.902 E3.63106
G1 X133.138 Y130.8 E3.64944
G1 X132.586 Y130.834 E3.66783
G1 X132.061 Y131.005 E3.6862
G1 X131.594 Y131.302 E3.7046
G1 X131.217 Y131.705 E3.72296
G1 X130.95 Y132.188 E3.74131
G1 X130.813 Y132.724 E3.75972
G1 X130.813 Y133.276 E3.77807
G1 X130.95 Y133.812 E3.79648
G1 X131.217 Y134.295 E3.81483
G1 X131.594 Y134.698 E3.83319
G1 X132.061 Y134.995 E3.85159
G1 X132.586 Y135.166 E3.86996
G1 X133.138 Y135.2 E3.88835
G1 X133.681 Y135.098 E3.90673
G0 F2400 X133.711 Y135.193
G0 X138.33 Y138.33
G0 X138.4 Y138.4
G1 F1200 X96.6 Y138.4 E5.297
G1 X96.6 Y96.6 E6.68728
G1 X138.4 Y96.6 E8.07755
G1 X138.4 Y138.4 E9.46782
G0 F2400 X138.33 Y138.33
G0 X102.711 Y135.193
G0 X102.681 Y135.098
G1 F1200 X103.181 Y134.861 E9.48623
G1 X103.607 Y134.509 E9.50461
G1 X103.932 Y134.062 E9.52299
G1 X104.135 Y133.548 E9.54137
G1 X104.205 Y133 E9.55974
G1 X104.135 Y132.452 E9.57812
G1 X103.932 Y131.938 E9.5965
G1 X103.607 Y131.491 E9.61488
G1 X103.181 Y131.139 E9.63326
G1 X102.681 Y130.902 E9.65166
G1 X102.138 Y130.8 E9.67004
G1 X101.586 Y130.834 E9.68843
G1 X101.061 Y131.005 E9.7068
G1 X100.594 Y131.302 E9.72521
G1 X100.217 Y131.705 E9.74356
G1 X99.95 Y132.188 E9.76192
G1 X99.813 Y132.724 E9.78032
G1 X99.813 Y133.276 E9.79868
G1 X99.95 Y133.812 E9.81708
G1 X100.217 Y134.295 E9.83543
G1 X100.594 Y134.698 E9.85379
G1 X101.061 Y134.995 E9.8722
G1 X101.586 Y135.166 E9.89056
G1 X102.138 Y135.2 E9.90895
G1 X102.681 Y135.098 E9.92733
G0 F2400 X102.711 Y135.193
G0 X102.14 Y135.239
G0 X101.579 Y135.205
G0 X101.044 Y135.031
G0 X100.569 Y134.728
G0 X100.185 Y134.318
G0 X99.913 Y133.826
G0 X99.774 Y133.28
G0 X99.774 Y132.72
G0 X99.913 Y132.174
G0 X100.066 Y131.897
G0 X100.584 Y131.191
G0 X100.851 Y131.612
;TYPE:WALL-OUTER
G1 F1200 X100.543 Y131.942 E9.94234
G1 X100.325 Y132.337 E9.95735
G1 X100.213 Y132.774 E9.97235
G1 X100.213 Y133.226 E9.98739
G1 X100.325 Y133.663 E10.00239
G1 X100.543 Y134.058 E10.0174
G1 X100.851 Y134.388 E10.03241
G1 X101.233 Y134.63 E10.04745
G1 X101.662 Y134.77 E10.06246
G1 X102.113 Y134.798 E10.07749
G1 X102.556 Y134.714 E10.09249
G1 X102.965 Y134.521 E10.10753
G1 X103.313 Y134.233 E10.12255
G1 X103.579 Y133.868 E10.13758
G1 X103.745 Y133.448 E10.1526
G1 X103.802 Y133 E10.16762
G1 X103.745 Y132.552 E10.18264
G1 X103.579 Y132.132 E10.19766
G1 X103.313 Y131.767 E10.21268
G1 X102.965 Y131.479 E10.2277
G1 X102.556 Y131.286 E10.24275
G1 X102.113 Y131.202 E10.25774
G1 X101.662 Y131.23 E10.27277
G1 X101.233 Y131.37 E10.28778
G1 X100.851 Y131.612 E10.30282
G0 F2400 X100.715 Y131.758
G0 X100.35 Y131.416
G0 X106.125 Y113.258
G0 X106.845 Y111.682
G0 X107.602 Y110.503
G0 X108.885 Y108.861
G0 X109.226 Y109.226
G1 F1200 X108.658 Y109.838 E10.33059
G1 X108.134 Y110.488 E10.35836
G1 X107.658 Y111.175 E10.38616
G1 X107.231 Y111.893 E10.41394
G1 X106.857 Y112.64 E10.44173
G1 X106.537 Y113.411 E10.46949
G1 X106.274 Y114.204 E10.49728
G1 X106.067 Y115.012 E10.52502
G1 X105.919 Y115.834 E10.5528
G1 X105.829 Y116.666 E10.58064
G1 X105.8 Y117.5 E10.60839
G1 X105.829 Y118.334 E10.63615
G1 X105.919 Y119.166 E10.66398
G1 X106.067 Y119.988 E10.69176
G1 X106.274 Y120.796 E10.7195
G1 X106.537 Y121.589 E10.74729
G1 X106.857 Y122.36 E10.77506
G1 X107.231 Y123.107 E10.80284
G1 X107.658 Y123.825 E10.83063
G1 X108.134 Y124.512 E10.85843
G1 X108.658 Y125.162 E10.8862
G1 X109.226 Y125.774 E10.91397
G1 X109.838 Y126.342 E10.94174
G1 X110.488 Y126.866 E10.96951
G1 X111.175 Y127.342 E10.99731
G1 X111.893 Y127.769 E11.02509
G1 X112.64 Y128.143 E11.05288
G1 X113.411 Y128.463 E11.08064
G1 X114.204 Y128.726 E11.10843
G1 X115.012 Y128.933 E11.13617
G1 X115.834 Y129.081 E11.16395
G1 X116.666 Y129.171 E11.19178
G1 X117.5 Y129.2 E11.21954
G1 X118.334 Y129.171 E11.24729
G1 X119.166 Y129.081 E11.27513
G1 X119.988 Y128.933 E11.30291
G1 X120.796 Y128.726 E11.33065
G1 X121.589 Y128.463 E11.35844
G1 X122.36 Y128.143 E11.3862
G1 X123.107 Y127.769 E11.41399
G1 X123.825 Y127.342 E11.44177
G1 X124.512 Y126.866 E11.46957
G1 X125.162 Y126.342 E11.49734
G1 X125.774 Y125.774 E11.52511
G1 X126.342 Y125.162 E11.55288
G1 X126.866 Y124.512 E11.58065
G1 X127.342 Y123.825 E11.60845
G1 X127.769 Y123.107 E11.63623
G1 X128.143 Y122.36 E11.66402
G1 X128.463 Y121.589 E11.69178
G1 X128.726 Y120.796 E11.71957
G1 X128.933 Y119.988 E11.74731
G1 X129.081 Y119.166 E11.77509
G1 X129.171 Y118.334 E11.80293
G1 X129.2 Y117.5 E11.83068
G1 X129.171 Y116.666 E11.85844
G1 X129.081 Y115.834 E11.88627
G1 X128.933 Y115.012 E11.91405
G1 X128.726 Y114.204 E11.9418
G1 X128.463 Y113.411 E11.96958
G1 X128.143 Y112.64 E11.99735
G1 X127.769 Y111.893 E12.02513
G1 X127.342 Y111.175 E12.05292
G1 X126.866 Y110.488 E12.08072
G1 X126.342 Y109.838 E12.10849
G1 X125.774 Y109.226 E12.13626
G1 X125.162 Y108.658 E12.16403
G1 X124.512 Y108.134 E12.1918
G1 X123.825 Y107.658 E12.2196
G1 X123.107 Y107.231 E12.24738
G1 X122.36 Y106.857 E12.27517
G1 X121.589 Y106.537 E12.30293
G1 X120.796 Y106.274 E12.33072
G1 X119.988 Y106.067 E12.35846
G1 X119.166 Y105.919 E12.38624
G1 X118.334 Y105.829 E12.41407
G1 X117.5 Y105.8 E12.44183
G1 X116.666 Y105.829 E12.46958
G1 X115.834 Y105.919 E12.49742
G1 X115.012 Y106.067 E12.5252
G1 X114.204 Y106.274 E12.55294
G1 X113.411 Y106.537 E12.58073
G1 X112.64 Y106.857 E12.60849
G1 X111.893 Y107.231 E12.63628
G1 X111.175 Y107.658 E12.66406
G1 X110.488 Y108.134 E12.69186
G1 X109.838 Y108.658 E12.71963
G1 X109.226 Y109.226 E12.7474
G0 F2400 X109.09 Y109.372
G0 X108.725 Y109.031
G0 X103.967 Y100.919
G0 X103.636 Y100.464
G0 X103.202 Y100.106
G0 X102.693 Y99.864
G0 X102.14 Y99.761
G0 X101.579 Y99.795
G0 X100.584 Y100.191
G0 X100.851 Y100.612
G1 F1200 X100.543 Y100.942 E12.76242
G1 X100.325 Y101.337 E12.77742
G1 X100.213 Y101.774 E12.79243
G1 X100.213 Y102.226 E12.80746
G1 X100.325 Y102.663 E12.82246
G1 X100.543 Y103.058 E12.83747
G1 X100.851 Y103.388 E12.85248
G1 X101.233 Y103.63 E12.86752
G1 X101.662 Y103.77 E12.88253
G1 X102.113 Y103.798 E12.89756
G1 X102.556 Y103.714 E12.91256
G1 X102.965 Y103.521 E12.9276
G1 X103.313 Y103.233 E12.94262
G1 X103.579 Y102.868 E12.95765
G1 X103.745 Y102.448 E12.97267
G1 X103.802 Y102 E12.98769
G1 X103.745 Y101.552 E13.00271
G1 X103.579 Y101.132 E13.01773
G1 X103.313 Y100.767 E13.03275
G1 X102.965 Y100.479 E13.04778
G1 X102.556 Y100.286 E13.06282
G1 X102.113 Y100.202 E13.07781
G1 X101.662 Y100.23 E13.09284
G1 X101.233 Y100.37 E13.10785
G1 X100.851 Y100.612 E13.12289
G0 F2400 X100.715 Y100.758
G0 X100.35 Y100.416
G0 X101.044 Y99.969
G0 X101.579 Y99.795
G0 X101.737 Y99.786
G0 X131.584 Y100.191
G0 X131.851 Y100.612
G1 F1200 X131.543 Y100.942 E13.13791
G1 X131.325 Y101.337 E13.15291
G1 X131.213 Y101.774 E13.16792
G1 X131.213 Y102.226 E13.18295
G1 X131.325 Y102.663 E13.19795
G1 X131.543 Y103.058 E13.21296
G1 X131.851 Y103.388 E13.22797
G1 X132.233 Y103.63 E13.24301
G1 X132.662 Y103.77 E13.25802
G1 X133.113 Y103.798 E13.27305
G1 X133.556 Y103.714 E13.28805
G1 X133.965 Y103.521 E13.30309
G1 X134.313 Y103.233 E13.31812
G1 X134.579 Y102.868 E13.33314
G1 X134.745 Y102.448 E13.34816
G1 X134.802 Y102 E13.36318
G1 X134.745 Y101.552 E13.3782
G1 X134.579 Y101.132 E13.39322
G1 X134.313 Y100.767 E13.40824
G1 X133.965 Y100.479 E13.42327
G1 X133.556 Y100.286 E13.43831
G1 X133.113 Y100.202 E13.4533
G1 X132.662 Y100.23 E13.46833
G1 X132.233 Y100.37 E13.48334
G1 X131.851 Y100.612 E13.49838
G0 F2400 X131.715 Y100.758
G0 X131.35 Y100.416
G0 X130.913 Y101.174
G0 X130.788 Y101.665
G0 X131.584 Y131.191
G0 X131.851 Y131.612
G1 F1200 X131.543 Y131.942 E13.5134
G1 X131.325 Y132.337 E13.5284
G1 X131.213 Y132.774 E13.54341
G1 X131.213 Y133.226 E13.55844
G1 X131.325 Y133.663 E13.57345
G1 X131.543 Y134.058 E13.58845
G1 X131.851 Y134.388 E13.60346
G1 X132.233 Y134.63 E13.6185
G1 X132.662 Y134.77 E13.63351
G1 X133.113 Y134.798 E13.64854
G1 X133.556 Y134.714 E13.66354
G1 X133.965 Y134.521 E13.67858
G1 X134.313 Y134.233 E13.69361
G1 X134.579 Y133.868 E13.70863
G1 X134.745 Y133.448 E13.72365
G1 X134.802 Y133 E13.73867
G1 X134.745 Y132.552 E13.75369
G1 X134.579 Y132.132 E13.76871
G1 X134.313 Y131.767 E13.78373
G1 X133.965 Y131.479 E13.79876
G1 X133.556 Y131.286 E13.8138
G1 X133.113 Y131.202 E13.8288
G1 X132.662 Y131.23 E13.84382
G1 X132.233 Y131.37 E13.85883
G1 X131.851 Y131.612 E13.87387
G0 F2400 X131.715 Y131.758
G0 X131.35 Y131.416
G0 X130.913 Y132.174
G0 X130.774 Y132.72
G0 X130.774 Y133.28
G0 X130.913 Y133.826
G0 X131.185 Y134.318
G0 X131.569 Y134.728
G0 X131.703 Y134.813
G0 X138.33 Y138.33
G0 X138.8 Y138.8
G1 F1200 X96.2 Y138.8 E15.29076
G1 X96.2 Y96.2 E16.70764
G1 X138.8 Y96.2 E18.12452
G1 X138.8 Y138.8 E19.5414
G0 F2400 X138.6 Y138.8
G0 X138.01 Y138.01
;TYPE:SKIN
G1 F1200 X96.99 Y138.01 E20.90573
G1 X96.99 Y96.99 E22.27006
G1 X138.01 Y96.99 E23.63439
G1 X138.01 Y138.01 E24.99872
G0 F2400 X134.894 Y134.778
G1 F1200 X135.277 Y134.251 E25.02039
G1 X135.515 Y133.646 E25.04202
G1 X135.599 Y133 E25.06368
G1 X135.515 Y132.354 E25.08535
G1 X135.277 Y131.749 E25.10697
G1 X134.894 Y131.222 E25.12864
G1 X134.392 Y130.807 E25.1503
G1 X133.802 Y130.528 E25.17201
G1 X133.163 Y130.408 E25.19364
G1 X132.512 Y130.448 E25.21533
G1 X131.893 Y130.65 E25.23699
G1 X131.343 Y131 E25.25867
G1 X130.899 Y131.475 E25.28029
G1 X130.585 Y132.043 E25.30188
G1 X130.423 Y132.675 E25.32358
G1 X130.423 Y133.325 E25.3452
G1 X130.585 Y133.957 E25.3669
G1 X130.899 Y134.525 E25.38849
G1 X131.343 Y135 E25.41011
G1 X131.893 Y135.35 E25.43179
G1 X132.512 Y135.552 E25.45345
G1 X133.163 Y135.592 E25.47514
G1 X133.802 Y135.472 E25.49677
G1 X134.392 Y135.193 E25.51848
G1 X134.894 Y134.778 E25.54014
G0 F2400 X135.245 Y133
G0 X135.173 Y132.443
G0 X134.967 Y131.919
G0 X134.636 Y131.464
G0 X134.391 Y131.262
G0 X126.333 Y126.333
G1 F1200 X126.94 Y125.679 E25.56982
G1 X127.499 Y124.986 E25.59943
G1 X128.007 Y124.252 E25.62912
G1 X128.463 Y123.486 E25.65877
G1 X128.862 Y122.688 E25.68844
G1 X129.204 Y121.865 E25.71809
G1 X129.484 Y121.019 E25.74773
G1 X129.706 Y120.156 E25.77736
G1 X129.863 Y119.278 E25.80703
G1 X129.96 Y118.39 E25.83674
G1 X129.99 Y117.5 E25.86636
G1 X129.96 Y116.61 E25.89598
G1 X129.863 Y115.722 E25.92569
G1 X129.706 Y114.844 E25.95535
G1 X129.484 Y113.981 E25.98499
G1 X129.204 Y113.135 E26.01463
G1 X128.862 Y112.312 E26.04427
G1 X128.463 Y111.514 E26.07395
G1 X128.007 Y110.748 E26.1036
G1 X127.499 Y110.014 E26.13329
G1 X126.94 Y109.321 E26.1629
G1 X126.333 Y108.667 E26.19258
G1 X125.679 Y108.06 E26.22225
G1 X124.986 Y107.501 E26.25187
G1 X124.252 Y106.993 E26.28156
G1 X123.486 Y106.537 E26.31121
G1 X122.688 Y106.138 E26.34088
